!!!!SEGMENT: pl-kk--kk-i-7--034_pekiel-bartlomiej--patrem-omnipotentem.krn
!!!cenid: 16xx:828
!!!COM: Pękiel, Bartłomiej
!!!COM-rismid: pe30105642
!!!CDT: <1633-~1670
!!!CNT: Polish
!!!OTL: Patrem omnipotentem
!!!PDT: 1664
!!!AGN: Sacred
!!!SMS-siglum: PL-Kk
!!!SMS-shelfmark: Kk.I.7
!!!SMS-shelfwork: 034 W
!!!SMS-variant:
!!!SMS-altvar:
!!!NIFC-rismid: 300258111
!!!URL-scan: http://repozytorium.nifc.pl/skany/pl-kk-nut--i-7
!!!ONB-nifc: UWAGA: C (skan 0024-0025, s.4345), A (0111-0112, s.42-44), T(0185-0187, s.35-38), B(0277-0279, s.4346). Następny utwór: Patrem omnipotentem
!!!AIN: 1 alto 1 bass 1 soprn 1 tenor
!!!key:
**kern	**text	**kern	**text	**kern	**text	**kern	**text
*part4	*part4	*part3	*part3	*part2	*part2	*part1	*part1
*staff4	*staff4	*staff3	*staff3	*staff2	*staff2	*staff1	*staff1
*Ibass	*	*Itenor	*	*Ialto	*	*Isoprn	*
*I"BASSVS.	*	*I"TENOR.	*	*I"ALTVS.	*	*I"CANTVS.	*
*I'B.	*	*I'T.	*	*I'A.	*	*I'C.	*
*clefF4	*	*clefC4	*	*clefC4	*	*clefC3	*
*k[b-]	*	*k[b-]	*	*k[b-]	*	*k[b-]	*
*F:	*	*F:	*	*F:	*	*F:	*
*M2/2	*	*M2/2	*	*M2/2	*	*M2/2	*
*met(c|)	*	*met(c|)	*	*met(c|)	*	*met(c|)	*
=1	=1	=1	=1	=1	=1	=1	=1
*	*	*	*	*	*	*2\right	*
!LO:TX:t=P:problem=metrum 2/2 zatwierdzone przez JI	!	!	!	!	!	!	!
!LO:TX:a:t=Patrem pro Festo Natiuitatis D.N.J.Christi Rotulat(um)\neiusdem aut 9bris (Novembris?)A.D. 1663 conſcript(?)	!	!LO:TX:t=P:problem=P wielkie, przed kluczem	!	!LO:TX:a:t=Patrem Rotulatum eiusdem aut.(?) Pro Nativitate D(omi)ni No(stri) J. Ch(risti)	!	!LO:TX:t=P:problem=all\right&colon; global	!
!LO:TX:b:t=na prawym marginesie karty jeszcze odejmowanie pisemne\ndat 1828-1663=165 (lat)	!	!LO:TX:a:i:t=Patrem Rotulatum\neiusdem ausſ(?) per Nat(ivita)ſ  D(omi)ni.	!	!LO:TX:b:t=1mus. T.	!	!LO:TX:t=P:problem=P wielkie przed kluczem, na pocz. pięciolinii	!
!LO:TX:t=P:problem=kreska pseudotaktowa	!	!	!	!	!	!	!
!	!	!	!	!LO:TX:t=P:problem=wszystkie kreski pseudotaktowa wpisane olowkiem	!	!	!
!	!	!	!	!LO:TX:t=P:problem=kreska pseudotaktowa	!	!	!
1r	.	2F/	PA-	1r	.	2f\	PA-
.	.	4F/	-trem	.	.	4f\	-trem
!	!	!	!	!	!	!LO:TX:t=P:problem=kreska pseudotaktowa	!
.	.	4F/	om-	.	.	4f\	om-
=2-	=2-	=2-	=2-	=2-	=2-	=2-	=2-
*	*	*	*	*2\right	*	*	*
!	!	!	!	!LO:TX:t=P:problem=P wielkie przed kluczem, na pocz. pięciolinii	!	!	!
!LO:TX:t=P:problem=P wielkie przed kluczem, na pocz. pięciolinii	!	!	!	!	!	!	!
!	!	!	!	!LO:TX:t=P:problem=all\right&colon; global	!	!	!
2C/	PA-	4.G/	-ni-	2c\	PA-	2.e\	-ni-
.	.	8G/	-po-	.	.	.	.
4C/	-trem	2.A/	-ten-	4c\	-trem	.	.
!LO:TX:t=P:problem=kreska pseudotaktowa	!	!	!	!	!	!	!
!	!	!	!	!LO:TX:t=P:problem=kreska pseudotaktowa	!	!	!
!	!	!	!	!	!	!LO:TX:t=P:problem=kreska pseudotaktowa	!
4C/	om-	.	.	4c\	om-	4e\	-po-
=3-	=3-	=3-	=3-	=3-	=3-	=3-	=3-
4.D/	-ni-	.	.	2.B-\	-ni-	(2d\	-ten-
.	.	8G/L	.	.	.	.	.
8D/	-po-	8F/J	.	.	.	.	.
*2\right	*	*	*	*	*	*	*
!LO:TX:t=P:problem=all\right&colon; global	!	!	!	!	!	!	!
!LO:TX:t=P:problem=kreska pseudotaktowa	!	!	!	!	!	!	!
!	!	!	!	!	!	!LO:TX:t=P:problem=kreska pseudotaktowa	!
2E\	-ten-	2G/	.	.	.	2c/)	.
!	!	!	!	!LO:TX:t=P:problem=kreska pseudotaktowa	!	!	!
.	.	.	.	4B-\	-po-	.	.
=4-	=4-	=4-	=4-	=4-	=4-	=4-	=4-
4.F\	.	8F/L	.	8A\L	.	2c/	-te(m)
.	.	8G/	.	8B-\J	.	.	.
.	.	8A/	.	2c\	.	.	.
8E\L	.	8G/J	.	.	.	.	.
!	!	!	!	!	!	!LO:TX:t=P:problem=kreska pseudotaktowa	!
8D\	.	8F/L	.	.	.	2r	.
8C\J	.	8E/J	.	.	.	.	.
!	!	!	!	!LO:TX:t=P:#above:problem	!	!	!
!	!	!	!	!LO:N:acc=#	!	!	!
!LO:TX:t=P:problem=kreska pseudotaktowa	!	!	!	!	!	!	!
!	!	!	!	!LO:TX:t=P:problem=kreska pseudotaktowa	!	!	!
4D/	.	4F/	.	4Bn\	-ten-	.	.
=5-	=5-	=5-	=5-	=5-	=5-	=5-	=5-
4C/	-tem	4E/	-tem	4c\	-tem	2g\	Fac-
4C/	Fac-	4G/	Fac-	4c\	Fac-	.	.
!	!	!LO:TX:t=P:problem=all\right&colon; global	!	!	!	!	!
4.GG/	-to-	4.B-\	-to-	4.d\	-to-	4.g\	-to-
*	*	*custos:d	*	*	*	*	*
!LO:TX:t=P:problem=kreska pseudotaktowa	!	!	!	!	!	!	!
!	!	!	!	!LO:TX:t=P:problem=kreska pseudotaktowa	!	!	!
!	!	!	!	!	!	!LO:TX:t=P:problem=kreska pseudotaktowa	!
8GG/	-re(m)	8B-\	-rem	8d\	-rem	8g\	-rem
=6-	=6-	=6-	=6-	=6-	=6-	=6-	=6-
*	*	*2\right	*	*	*	*	*
2BB-/	c(ae)-	2d\	c(ae)-	8B-\L	c(ae)-	2d\	c(oe)-
.	.	.	.	8c\J	.	.	.
.	.	.	.	4d\	-li	.	.
!	!	!	!	!	!	!LO:TX:t=P:problem=kreska pseudotaktowa	!
4C/	-li	4G/	-li	4c\	.	2e\	-li
!LO:TX:t=P:problem=kreska pseudotaktowa	!	!	!	!	!	!	!
!	!	!	!	!LO:TX:t=P:problem=kreska pseudotaktowa	!	!	!
4C/	et	4G/	et	4c\	et	.	.
=7-	=7-	=7-	=7-	=7-	=7-	=7-	=7-
2FF/	ter-	8A\L	ter-	(2A/	ter-	2f\	et
.	.	8B-\J	.	.	.	.	.
.	.	2c\	.	.	.	.	.
!LO:TX:t=P:problem=kreska pseudotaktowa	!	!	!	!	!	!	!
!	!	!	!	!LO:TX:t=P:problem=kreska pseudotaktowa	!	!	!
!	!	!	!	!	!	!LO:TX:t=P:problem=kreska pseudotaktowa	!
2GG/	.	.	.	2G/)	.	2d\	ter-
!	!	!LO:N:acc=#	!	!	!	!	!
.	.	4Bn\	.	.	.	.	.
=8-	=8-	=8-	=8-	=8-	=8-	=8-	=8-
!LO:TX:t=P:problem=kreska pseudotaktowa	!	!	!	!	!	!	!
1C/	-r(ae)	1c\	-r(ae)	4G,</	-r(ae)	2e,<\	-r(ae)
.	.	.	.	2G/	Vi-	.	.
!	!	!	!	!	!	!LO:TX:t=P::problem=kreska pseudotaktowa&colon;między nutą a kropką	!
.	.	.	.	.	.	2.c/	Vi-
!	!	!	!	!LO:TX:t=P:problem=kreska pseudotaktowa	!	!	!
.	.	.	.	4G/	-ſi-	.	.
=9-	=9-	=9-	=9-	=9-	=9-	=9-	=9-
2.FF/	Vi-	0r	.	2.A/	-bi-	.	.
.	.	.	.	.	.	4c/	-ſi-
!	!	!	!	!	!	!LO:TX:t=P:problem=kreska pseudotaktowa	!
.	.	.	.	.	.	2d\	-bi-
!LO:TX:t=P:problem=kreska pseudotaktowa	!	!	!	!	!	!	!
!	!	!	!	!LO:TX:t=P:problem=kreska pseudotaktowa	!	!	!
4FF/	-ſi-	.	.	4A/	-li-	.	.
=10-	=10-	=10-	=10-	=10-	=10-	=10-	=10-
4.GG/	-bi-	.	.	2B-\	-um	4d\	-li-
.	.	.	.	.	.	2e\	-um
8GG/	-li-	.	.	.	.	.	.
!LO:TX:t=P:problem=kreska pseudotaktowa	!	!	!	!	!	!	!
2AA/	-um	.	.	4.c\	o-	.	.
.	.	.	.	.	.	8f\L	o-
!	!	!	!	!	!	!LO:TX:t=P:problem=kreska pseudotaktowa	!
.	.	.	.	16B-\LL	.	8e\J	.
!	!	!	!	!LO:TX:t=P:problem=kreska pseudotaktowa	!	!	!
.	.	.	.	16c\JJ	.	.	.
=11-	=11-	=11-	=11-	=11-	=11-	=11-	=11-
4.BB-/	o-	1r	.	4.d\	.	8d\L	.
.	.	.	.	.	.	8e\J	.
.	.	.	.	.	.	2f\	.
*custos:GG	*	*	*	*	*	*	*
8AA/	.	.	.	8c\	.	.	.
4.GG/	.	.	.	4.B-\	.	.	.
!	!	!	!	!	!	!LO:TX:t=P:problem=kreska pseudotaktowa	!
.	.	.	.	.	.	4e\	-mni-
!LO:TX:t=P:problem=kreska pseudotaktowa	!	!	!	!	!	!	!
!	!	!	!	!LO:TX:t=P:problem=kreska pseudotaktowa	!	!	!
8GG/	-mni-	.	.	8B-\	-mni-	.	.
=12-	=12-	=12-	=12-	=12-	=12-	=12-	=12-
*	*	*	*	*custos:c	*	*	*
!	!	!	!	!LO:TX:t=P:problem=kreska pseudotaktowa	!	!	!
1FF/	-um	2c\	et	1A\	-um	1f\	-um
.	.	2F/	in-	.	.	.	.
=13-	=13-	=13-	=13-	=13-	=13-	=13-	=13-
2C/	et	2.G/	-ui-	2c\	Et	2e\	et
!LO:TX:t=P:problem=kreska pseudotaktowa	!	!	!	!	!	!	!
!	!	!	!	!LO:TX:t=P:problem=kreska pseudotaktowa	!	!	!
!	!	!	!	!	!	!LO:TX:t=P:problem=kreska pseudotaktowa	!
2GG/	in-	.	.	2B-\	in-	2d\	in-
.	.	4G/	-ſi-	.	.	.	.
=14-	=14-	=14-	=14-	=14-	=14-	=14-	=14-
4.BB-/	-ui-	(2D/	-bi-	2.B-\	-ui-	4.d\	-ui-
8AA/	.	.	.	.	.	16e\LL	.
*	*	*	*	*	*	*custos:g	*
.	.	.	.	.	.	16f\JJ	.
4GG/	-ſi-	2E/)	.	.	.	8g\L	.
.	.	.	.	.	.	8f\	.
!LO:TX:t=P:problem=kreska pseudotaktowa	!	!	!	!	!	!	!
!	!	!	!	!LO:TX:t=P:problem=kreska pseudotaktowa	!	!	!
4C/	.	.	.	2c\	-ſi-	8e\	.
!	!	!	!	!	!	!LO:TX:t=P:problem=kreska pseudotaktowa	!
.	.	.	.	.	.	8d\J	.
=15-	=15-	=15-	=15-	=15-	=15-	=15-	=15-
4AA/	-bi-	(2F/	-li-	.	.	4c/	-ſi-
8D/L	.	.	.	2d\	-bi-	2f\	-bi-
8C/J	.	.	.	.	.	.	.
4BB-/	.	4.G/)	.	.	.	.	.
!	!	!	!	!LO:TX:t=P:problem=kreska pseudotaktowa	!	!	!
!	!	!	!	!	!	!LO:TX:t=P:problem=kreska pseudotaktowa	!
8.C/	.	.	.	4c\	-li-	4e\	-li-
.	.	8G/	-um	.	.	.	.
!LO:TX:t=P:problem=kreska pseudotaktowa	!	!	!	!	!	!	!
16C/	-li-	.	.	.	.	.	.
=16-	=16-	=16-	=16-	=16-	=16-	=16-	=16-
!	!	!	!	!LO:TX:t=P:problem=kreska pseudotaktowa	!	!	!
1FF/,<	-um	4A,</	.	1c\	-um.	4f\	-um.
.	.	2F/	Et	.	.	8.f\	Et
.	.	.	.	.	.	16f\	in
!	!	!	!	!	!	!LO:TX:t=P:problem=kreska pseudotaktowa	!
.	.	.	.	.	.	2a\	V-
.	.	4A/	in	.	.	.	.
=17-	=17-	=17-	=17-	=17-	=17-	=17-	=17-
2.FF/	Et	2.c\	V-	2.A/	Et	4f\	-num
.	.	.	.	.	.	4.a\	Do-
.	.	.	.	.	.	8g\L	.
!LO:TX:t=P:problem=kreska pseudotaktowa	!	!	!	!	!	!	!
!	!	!	!	!LO:TX:t=P:problem=kreska pseudotaktowa	!	!	!
4AA/	in	4c\	-num	4c\	in	8f\	.
!	!	!	!	!	!	!LO:TX:t=P:problem=kreska pseudotaktowa	!
.	.	.	.	.	.	8e\J	.
=18-	=18-	=18-	=18-	=18-	=18-	=18-	=18-
8BB-/L	V-	2d\	.	2B-\	V-	8d\L	.
8C/	.	.	.	.	.	8e\	.
8D/	.	.	.	.	.	8f\	.
8E/J	.	.	.	.	.	8g\J	.
4F\	.	2c\	Do-	(4A\	-num	4a\	.
!LO:TX:t=P:problem=kreska pseudotaktowa	!	!	!	!	!	!	!
!	!	!	!	!LO:TX:t=P:problem=kreska pseudotaktowa	!	!	!
!	!	!	!	!	!	!LO:TX:t=P:problem=kreska pseudotaktowa	!
4E\	-num	.	.	4c\)	.	4g\	.
=19-	=19-	=19-	=19-	=19-	=19-	=19-	=19-
4.F\	Do-	2A\	.	8F/L	Do-	4f\	.
.	.	.	.	8G/	.	.	.
.	.	.	.	8A/	.	4c/	.
8E\	.	.	.	8G/J	.	.	.
!	!	!LO:N:acc=#	!	!	!	!	!
4.D/	.	4.Bn\	.	8F/L	.	4.d\	.
.	.	.	.	8E/J	.	.	.
.	.	.	.	8.F/	.	.	.
!LO:TX:t=P:problem=kreska pseudotaktowa	!	!	!	!	!	!	!
!	!	!	!	!	!	!LO:TX:t=P:problem=kreska pseudotaktowa	!
8D/	-mi-	8Bny\	-mi-	.	.	8d\	-mi-
!	!	!	!	!LO:TX:t=P:problem=kreska pseudotaktowa	!	!	!
.	.	.	.	16F/	-mi-	.	.
=20-	=20-	=20-	=20-	=20-	=20-	=20-	=20-
!	!	!	!	!	!	!LO:TX:t=P:problem=kreska pseudotaktowa	!
4C/	-num	1c\	-num	4E/	-num	1G/	-num
4.C/	.	.	.	4.c\	Je-	.	.
8D/	Je-	.	.	8B-\L	.	.	.
8E\L	.	.	.	8G\	.	.	.
!LO:TX:t=P:problem=kreska pseudotaktowa	!	!	!	!	!	!	!
!	!	!	!	!LO:TX:t=P:problem=kreska pseudotaktowa	!	!	!
8C\J	.	.	.	8A\J	.	.	.
=21-	=21-	=21-	=21-	=21-	=21-	=21-	=21-
!	!	!	!	!LO:TX:t=P:problem=kreska pseudotaktowa	!	!	!
4G\	.	1d\	Je-	1B-\	.	4r	.
4.GG/	.	.	.	.	.	4.g\	Je-
8AA/L	.	.	.	.	.	8f\L	.
8BB-/	.	.	.	.	.	8d\	.
*custos:AA	*	*	*	*	*	*	*
!LO:TX:t=P::problem=na marginesie "kustosz słowny"&colon; ſu(m)	!	!	!	!	!	!	!
!LO:TX:t=P:problem=kreska pseudotaktowa	!	!	!	!	!	!	!
!	!	!	!	!	!	!LO:TX:t=P:problem=kreska pseudotaktowa	!
8GG/J	.	.	.	.	.	8e\J	.
=22-	=22-	=22-	=22-	=22-	=22-	=22-	=22-
8AA/L	.	1c\	-ſum	2A/	.	2f\	.
8FF/J	.	.	.	.	.	.	.
2F\	.	.	.	.	.	.	.
!	!	!	!	!	!	!LO:TX:t=P::problem=kreska pseudotaktowa&colon;między nutą a kropką	!
.	.	.	.	4G/	-ſum	2.g\	.
!LO:TX:t=P:problem=kreska pseudotaktowa	!	!	!	!	!	!	!
!	!	!	!	!LO:TX:t=P::problem=kreska pseudotaktowa&colon;na nucie	!	!	!
4E\	-ſum	.	.	2c\	Je-	.	.
=23-	=23-	=23-	=23-	=23-	=23-	=23-	=23-
8F\L	Chri-	2A/	Chri-	.	.	.	.
8E\J	.	.	.	.	.	.	.
8D/L	.	.	.	4d\	-ſu(m)	4f\	-ſum
8C/J	.	.	.	.	.	.	.
4BB-/	.	2G/	.	(4d\	Chri-	4f\	Chri-
!LO:TX:t=P:problem=kreska pseudotaktowa	!	!	!	!	!	!	!
!	!	!	!	!LO:TX:t=P:problem=kreska pseudotaktowa	!	!	!
!	!	!	!	!	!	!LO:TX:t=P:problem=kreska pseudotaktowa	!
4C/	.	.	.	4c\)	.	4e\	.
=24-	=24-	=24-	=24-	=24-	=24-	=24-	=24-
*	*	*custos:G	*	*	*	*	*
!LO:TX:t=P:problem=kreska pseudotaktowa	!	!	!	!	!	!	!
1FF/,<	-ſtum	1F/	-ſtum	2c\	-ſtum	2f\	-ſtum
.	.	.	.	4r	.	4.c\	Fi-
!	!	!	!	!LO:TX:t=P::problem=kreska pseudotaktowa&colon;między nutą a kropką	!	!	!
.	.	.	.	4.A\	Fi-	.	.
.	.	.	.	.	.	16d\	-li-
!	!	!	!	!	!	!LO:TX:t=P:problem=kreska pseudotaktowa	!
.	.	.	.	.	.	16e\	-um
=25-	=25-	=25-	=25-	=25-	=25-	=25-	=25-
4.D/	Fi-	2r	.	.	.	(2f\	De-
.	.	.	.	16B-\	-li-	.	.
.	.	.	.	16c\	-um	.	.
.	.	.	.	8d\L	.	.	.
16E\	-li-	.	.	8c\	.	.	.
!LO:TX:t=P:#above:problem	!	!	!	!	!	!	!
16F#X\	-um	.	.	.	.	.	.
!	!	!	!	!LO:TX:t=P:#above:problem	!	!	!
!	!	!	!	!LO:N:acc=#	!	!	!
!LO:TX:t=P:problem=kreska pseudotaktowa	!	!	!	!	!	!LO:TX:t=P:problem=kreska pseudotaktowa	!
2G\	De-	4r	.	8Bn\	De-	2d\)	.
!	!	!	!	!LO:TX:t=P:problem=kreska pseudotaktowa	!	!	!
.	.	.	.	8A\J	.	.	.
*	*	*	*	*custos:c	*	*	*
.	.	4.G/	Fi-	4Bny\	.	.	.
!	!	!	!	!LO:TX:t=P:problem=kreska pseudotaktowa	!	!	!
=26-	=26-	=26-	=26-	=26-	=26-	=26-	=26-
2C/	-i	.	.	4.c\	.	2e,<\	-i
.	.	16A\	-li-	.	.	.	.
.	.	16B-y\	-um	.	.	.	.
.	.	4.c\	De-	.	.	.	.
.	.	.	.	8G/	-i	.	.
*	*ij	*	*	*	*	*	*
!	!	!	!	!LO:TX:t=P:problem=kreska pseudotaktowa	!	!	!
4.AA/	Fi-	.	.	[2A/	V-	4.c\	Fi-
.	.	8B-\	.	.	.	.	.
.	.	2A/	.	.	.	.	.
16BB-/	-li-	.	.	.	.	16d\	-li-
*	*	*	*	*	*	*custos:f	*
!LO:TX:t=P:problem=kreska pseudotaktowa	!	!	!	!	!	!	!
!	!	!	!	!	!	!LO:TX:t=P:problem=kreska pseudotaktowa	!
16C/	-um	.	.	.	.	16e\	-um
=27-	=27-	=27-	=27-	=27-	=27-	=27-	=27-
4.D/	De-	.	.	8A/]	.	2.f\	De-
.	.	.	.	8D/	-ni-	.	.
.	.	4A/	-i	2d\	-ge-	.	.
8C/	-i	.	.	.	.	.	.
*	*Xij	*	*	*	*	*	*
4BB-/	V-	4.G/	V-	.	.	.	.
!LO:TX:t=P:problem=kreska pseudotaktowa	!	!	!	!	!	!	!
!	!	!	!	!LO:TX:t=P:problem=kreska pseudotaktowa	!	!	!
!	!	!	!	!	!	!LO:TX:t=P:problem=kreska pseudotaktowa	!
4C/	-ni-	.	.	4c\	-ni-	4e-X\	-i
.	.	8G/	-ni-	.	.	.	.
=28-	=28-	=28-	=28-	=28-	=28-	=28-	=28-
!	!	!	!	!LO:N:acc=#	!	!	!
2.GG/	-ge-	2.G/	-ge-	4Bn\	-tum	8.d\	V-
.	.	.	.	.	.	16d\	-ni-
.	.	.	.	8.e-X\	V-	2c/	-ge-
.	.	.	.	16e-\	-ni-	.	.
.	.	.	.	4.d\	-ge-	.	.
!LO:TX:t=P:problem=kreska pseudotaktowa	!	!	!	!	!	!	!
!	!	!	!	!	!	!LO:TX:t=P:problem=kreska pseudotaktowa	!
4GG/	-ni-	4G/	-ni-	.	.	4B#X/	-ni-
!	!	!	!	!LO:TX:t=P:problem=kreska pseudotaktowa	!	!	!
.	.	.	.	8d\	-ni-	.	.
=29-	=29-	=29-	=29-	=29-	=29-	=29-	=29-
!	!	!	!	!	!	!LO:TX:t=P:problem=kreska pseudotaktowa	!
4C/	-tum	1G/	-tum	4c,<\	-tu(m)	1e-X\	-tum
2C/	et	.	.	2c\	et	.	.
!LO:TX:t=P:problem=kreska pseudotaktowa	!	!	!	!	!	!	!
!	!	!	!	!LO:TX:t=P:problem=kreska pseudotaktowa	!	!	!
4C/	ex	.	.	4c\	ex	.	.
=30-	=30-	=30-	=30-	=30-	=30-	=30-	=30-
8.D\	Pa-	2F/	et	4B-\	Pa-	2r	.
16E\	-tre	.	.	.	.	.	.
2Fny\	na-	.	.	4A\	.	.	.
!	!	!	!	!LO:TX:t=P::problem=kreska pseudotaktowa&colon;na nucie	!	!	!
.	.	2G/	ex	1c\	-tre	4.g\	et
!LO:TX:t=P:problem=kreska pseudotaktowa	!	!	!	!	!	!	!
4E\	.	.	.	.	.	.	.
!	!	!	!	!	!	!LO:TX:t=P:problem=kreska pseudotaktowa	!
.	.	.	.	.	.	8g\	ex
=31-	=31-	=31-	=31-	=31-	=31-	=31-	=31-
*custos:F	*	*	*	*	*	*	*
2F\	-tu(m)	2A/	Pa-	.	.	4.f\	Pa-
.	.	.	.	.	.	8ny\	.
!LO:TX:t=P:problem=kreska pseudotaktowa	!	!	!	!	!	!	!
!	!	!	!	!LO:TX:t=P:problem=kreska pseudotaktowa	!	!	!
2r	.	2B-\	-tre	2d\	na-	8d\L	-tre
.	.	.	.	.	.	8eny\	.
.	.	.	.	.	.	8f\	.
!	!	!	!	!	!	!LO:TX:t=P:problem=kreska pseudotaktowa	!
.	.	.	.	.	.	8d\J	.
=32-	=32-	=32-	=32-	=32-	=32-	=32-	=32-
!LO:TX:t=P:problem=kreska pseudotaktowa	!	!	!	!	!	!	!
!	!	!	!	!LO:TX:t=P::problem=kreska pseudotaktowa&colon;na nucie	!	!	!
1r	.	1G/	na-	1B-\	-tum	4e\	na-
.	.	.	.	.	.	2f\	.
!	!	!	!	!	!	!LO:TX:t=P:problem=kreska pseudotaktowa	!
.	.	.	.	.	.	4e\	.
=33-	=33-	=33-	=33-	=33-	=33-	=33-	=33-
!LO:TX:t=P:problem=kreska pseudotaktowa	!	!	!	!	!	!	!
!	!	!	!	!LO:TX:t=P:problem=kreska pseudotaktowa	!	!	!
1F\	an-	1F/	-tum	1A\	an-	4f\	-tum
.	.	.	.	.	.	2f\	an-
!	!	!	!	!	!	!LO:TX:t=P:problem=kreska pseudotaktowa	!
.	.	.	.	.	.	4c/	-te
=34-	=34-	=34-	=34-	=34-	=34-	=34-	=34-
!LO:TX:t=P:problem=kreska pseudotaktowa	!	!	!	!	!	!	!
1C/	-te	1c\	an-	4G/	-te	2.e\	om-
.	.	.	.	4C/	an-	.	.
.	.	.	.	4c\	-te	.	.
!	!	!	!	!LO:TX:t=P:problem=kreska pseudotaktowa	!	!	!
!	!	!	!	!	!	!LO:TX:t=P:problem=kreska pseudotaktowa	!
.	.	.	.	4B-\	.	4e\	-ni-
=35-	=35-	=35-	=35-	=35-	=35-	=35-	=35-
!	!	!	!	!	!	!LO:TX:t=P:problem=kreska pseudotaktowa	!
4D/	O-	1F/	-te	4A\	o-	1f\	-a
4C/	.	.	.	8B-\L	.	.	.
.	.	.	.	8c\J	.	.	.
4BB-/	.	.	.	4d\	.	.	.
8AA/L	.	.	.	8c\L	.	.	.
!LO:TX:t=P:problem=kreska pseudotaktowa	!	!	!	!	!	!	!
!	!	!	!	!LO:TX:t=P:problem=kreska pseudotaktowa	!	!	!
8GG/J	.	.	.	8B-\J	.	.	.
=36-	=36-	=36-	=36-	=36-	=36-	=36-	=36-
!	!	!	!	!LO:TX:t=P:problem=kreska pseudotaktowa	!	!	!
4FF/	.	1A\	om-	1c\	.	4f\	an-
4GG/	.	.	.	.	.	8e\L	.
.	.	.	.	.	.	8d\J	.
4AA/	.	.	.	.	.	4c/	.
!	!	!	!	!	!	!LO:TX:t=P:problem=kreska pseudotaktowa	!
8GG/L	.	.	.	.	.	4d\	-te
!LO:TX:t=P:problem=kreska pseudotaktowa	!	!	!	!	!	!	!
8FF/J	.	.	.	.	.	.	.
=37-	=37-	=37-	=37-	=37-	=37-	=37-	=37-
4C/	.	2G/	-ni-	2c\	-mni-	4.e\	om-
8BB-/L	.	.	.	.	.	.	.
8AA/J	.	.	.	.	.	8f\	-ni-
!	!	!	!	!LO:TX:t=P:problem=kreska pseudotaktowa	!	!	!
4.GG/	.	2B-\	-a	2d\	-a	4g\	-a
!	!	!	!	!	!	!LO:TX:t=P::problem=kreska pseudotaktowa&colon;na nucie	!
.	.	.	.	.	.	2g\	ſ(ae)-
!LO:TX:t=P:problem=kreska pseudotaktowa	!	!	!	!	!	!	!
8GG/	-mni-	.	.	.	.	.	.
=38-	=38-	=38-	=38-	=38-	=38-	=38-	=38-
2AA/	-a	(2A/	ſ(ae)-	2.c\	ſ(ae)-	.	.
.	.	.	.	.	.	2f\	.
4.C/	ſ(ae)-	4.G/)	.	.	.	.	.
!	!	!	!	!LO:TX:t=P:problem=kreska pseudotaktowa	!	!LO:TX:t=P:problem=kreska pseudotaktowa	!
.	.	.	.	4c\	-cu-	4e\	-cu-
!LO:TX:t=P:problem=kreska pseudotaktowa	!	!	!	!	!	!	!
8C/	-cu-	8G/	-cu-	.	.	.	.
=39-	=39-	=39-	=39-	=39-	=39-	=39-	=39-
4FF/	-la	1A\,<	-la.	4c,<\	-la.	4f\	-la
*	*	*	*	*custos:d	*	*	*
4F\	De-	.	.	4c\	De-	4f\	De-
4D/	-um	.	.	4d\	-um	4f\	-um
*	*	*	*	*	*	*custos:d	*
!LO:TX:t=P:problem=kreska pseudotaktowa	!	!	!	!	!	!	!
!	!	!	!	!LO:TX:t=P:problem=kreska pseudotaktowa	!	!	!
!	!	!	!	!	!	!LO:TX:t=P:problem=kreska pseudotaktowa	!
4AA/	de	.	.	4c\	de	4e\	de
=40-	=40-	=40-	=40-	=40-	=40-	=40-	=40-
2BB-/	De-	2F/	De-	8B-\L	De-	8d\L	De-
.	.	.	.	8c\	.	8e\J	.
.	.	.	.	8d\	.	4f\	.
.	.	.	.	8eny\J	.	.	.
!LO:TX:t=P:problem=kreska pseudotaktowa	!	!	!	!	!	!	!
!	!	!	!	!LO:TX:t=P:problem=kreska pseudotaktowa	!	!	!
!	!	!	!	!	!	!LO:TX:t=P:problem=kreska pseudotaktowa	!
2FF/	-o	4A/	-um	2c\	.	2f\	-o
.	.	4A/	de	.	.	.	.
=41-	=41-	=41-	=41-	=41-	=41-	=41-	=41-
*	*	*custos:c	*	*	*	*	*
*	*ij	*	*	*	*	*	*
2FF/	De-	1c\	De-	2A,</	-o	2f\	lu-
!	!	!	!	!LO:TX:t=P:problem=kreska pseudotaktowa	!	!	!
4AA/	-um	.	.	2A/	Lu-	4c/	-men
!LO:TX:t=P:problem=kreska pseudotaktowa	!	!	!	!	!	!	!
!	!	!	!	!	!	!LO:TX:t=P:problem=kreska pseudotaktowa	!
4FF/	de	.	.	.	.	4d\	de
=42-	=42-	=42-	=42-	=42-	=42-	=42-	=42-
1C/	De-	4c\	-o	4G/	-men	2.e\	lu-
.	.	4C/	Lu-	4G/	de	.	.
.	.	4E/	-men	4.c\	Lu-	.	.
!	!	!	!	!	!	!LO:TX:t=P:problem=kreska pseudotaktowa	!
.	.	4C/	de	.	.	4e\	-mi-
!	!	!	!	!LO:TX:t=P:problem=kreska pseudotaktowa	!	!	!
.	.	.	.	8B-\	.	.	.
=43-	=43-	=43-	=43-	=43-	=43-	=43-	=43-
4FF/	-o	2.F/	Lu-	2.A/	.	2a\	-ne
*	*Xij	*	*	*	*	*	*
4FF/	lu-	.	.	.	.	.	.
!	!	!	!	!	!	!LO:TX:t=P:problem=kreska pseudotaktowa	!
4AA/	-men	.	.	.	.	2f\	de
*custos:BB	*	*	*	*	*	*	*
!LO:TX:t=P:problem=kreska pseudotaktowa	!	!	!	!	!	!	!
!	!	!	!	!LO:TX:t=P:problem=kreska pseudotaktowa	!	!	!
4FF/	de	4F/	-mi-	4A/	-mi-	.	.
=44-	=44-	=44-	=44-	=44-	=44-	=44-	=44-
4.BB-/	lu-	4.D/	-ne	4B-,<\	-ne	2.f\	lu-
.	.	.	.	4c\	de	.	.
8AA/L	.	8F/	de	.	.	.	.
8GG/	.	4.G/	lu-	4.B-\	lu-	.	.
8FF/J	.	.	.	.	.	.	.
!	!	!	!	!	!	!LO:TX:t=P:problem=kreska pseudotaktowa	!
8.GG/	.	.	.	.	.	4e\	-mi-
!	!	!	!	!LO:TX:t=P:problem=kreska pseudotaktowa	!	!	!
.	.	8G/	-mi-	8B-\	-mi-	.	.
!LO:TX:t=P:problem=kreska pseudotaktowa	!	!	!	!	!	!	!
16GG/	-mi-	.	.	.	.	.	.
=45-	=45-	=45-	=45-	=45-	=45-	=45-	=45-
!	!	!	!	!	!	!LO:TX:t=P:problem=kreska pseudotaktowa	!
2FF/	-ne	4C/	-ne	2A/	-ne	1f\	-ne
.	.	2c\	De-	.	.	.	.
!LO:TX:t=P:problem=kreska pseudotaktowa	!	!	!	!	!	!	!
2F\	De-	.	.	4.A/	De-	.	.
.	.	4A/	-um	.	.	.	.
!	!	!	!	!LO:TX:t=P:problem=kreska pseudotaktowa	!	!	!
.	.	.	.	8A/	-um	.	.
=46-	=46-	=46-	=46-	=46-	=46-	=46-	=46-
4D/	-um	(2F/	Ve-	4.d\	Ve-	2.f\	De-
8BB-/L	.	.	.	.	.	.	.
8AA/J	Ve-	.	.	8c\	.	.	.
8GG/L	.	2G/)	.	8B-\L	.	.	.
16AA/L	.	.	.	16c\L	.	.	.
16BB-/JJ	.	.	.	16d\JJ	.	.	.
!LO:TX:t=P:problem=kreska pseudotaktowa	!	!	!	!	!	!	!
!	!	!	!	!LO:TX:t=P:problem=kreska pseudotaktowa	!	!	!
!	!	!	!	!	!	!LO:TX:t=P:problem=kreska pseudotaktowa	!
4C/	.	.	.	4c\	.	4e\	-um
=47-	=47-	=47-	=47-	=47-	=47-	=47-	=47-
4FF/	-ru(m)	2A/	-rum	2c\	.	8f\L	Ve-
.	.	.	.	.	.	8g\	.
4FF/	de	.	.	.	.	8a\	.
.	.	.	.	.	.	8g\J	.
!	!	!	!	!LO:TX:t=P:problem=kreska pseudotaktowa	!	!	!
8FF/L	.	2A/	de	2c\	-rum	8f\L	.
8GG/	De-	.	.	.	.	16e\L	.
.	.	.	.	.	.	16d\J	.
8AA/	.	.	.	.	.	8c\	.
!LO:TX:t=P:problem=kreska pseudotaktowa	!	!	!	!	!	!	!
!	!	!	!	!	!	!LO:TX:t=P:problem=kreska pseudotaktowa	!
8BB-/J	.	.	.	.	.	8d\J	.
=48-	=48-	=48-	=48-	=48-	=48-	=48-	=48-
4.C/	.	2G/	De-	2c\	de	4e\	.
.	.	.	.	.	.	8e\	-rum
16BB-/LL	.	.	.	.	.	8f\	de
16AA/JJ	.	.	.	.	.	.	.
!	!	!	!	!LO:TX:t=P:problem=kreska pseudotaktowa	!	!	!
!	!	!	!	!	!	!LO:TX:t=P:problem=kreska pseudotaktowa	!
8GG/L	.	2B-\	-o	2d\	De-	2g\	De-
8AA/	.	.	.	.	.	.	.
8BB-/	.	.	.	.	.	.	.
!LO:TX:t=P:problem=kreska pseudotaktowa	!	!	!	!	!	!	!
8C/J	.	.	.	.	.	.	.
=49-	=49-	=49-	=49-	=49-	=49-	=49-	=49-
4D/	-o	(2A/	Ve-	4d\	-o	4f\	-o
4AA/	.	.	.	4c\	.	(2f\	Ve-
4BB-/	Ve-	2G/)	.	4d\	Ve-	.	.
!LO:TX:t=P:problem=kreska pseudotaktowa	!	!	!	!	!	!LO:TX:t=P:problem=kreska pseudotaktowa	!
4C/	.	.	.	8c\L	.	4e\)	.
!	!	!	!	!LO:TX:t=P:problem=kreska pseudotaktowa	!	!	!
.	.	.	.	8B-\J	.	.	.
=50-	=50-	=50-	=50-	=50-	=50-	=50-	=50-
!	!	!	!	!LO:TX:t=P:problem=kreska pseudotaktowa	!	!	!
4FF/	-ro	2F/	-ro	1A\	-ro	4f\	-ro
4.FF/	ge-	.	.	.	.	4.f\	ge-
.	.	2r	.	.	.	.	.
8GG/	-ni-	.	.	.	.	8e\	-ni-
8AA/	-tum	.	.	.	.	8c/	-tum
!LO:TX:t=P:problem=kreska pseudotaktowa	!	!	!	!	!	!	!
!	!	!	!	!	!	!LO:TX:t=P:problem=kreska pseudotaktowa	!
8BB-/	.	.	.	.	.	8d\	non
=51-	=51-	=51-	=51-	=51-	=51-	=51-	=51-
8C/L	non	2.c\	ge-	2r	.	8e\L	.
8D/	.	.	.	.	.	8f\	.
8E/	.	.	.	.	.	8g\	.
*	*	*	*	*	*	*custos:a	*
8C/J	.	.	.	.	.	8e\J	fa-
!	!	!	!	!	!	!LO:TX:t=P:problem=kreska pseudotaktowa	!
8F\L	fa-	.	.	8.A\	ge-	2a\	.
8G\	.	.	.	.	.	.	.
.	.	.	.	16B-\	-ni-	.	.
8A\	.	4c\	-ni-	8c\	-tu(m)	.	.
*custos:B	*	*	*	*custos:B	*	*	*
!LO:TX:t=P:problem=kreska pseudotaktowa	!	!	!	!	!	!	!
!	!	!	!	!LO:TX:t=P:problem=kreska pseudotaktowa	!	!	!
8F\J	.	.	.	8A\	non	.	.
=52-	=52-	=52-	=52-	=52-	=52-	=52-	=52-
4B-\	.	2d\	-tum	2B-\	fac-	4f\	.
4G\	.	.	.	.	.	8g\L	.
.	.	.	.	.	.	8f\J	.
4A\	.	2c\	non	4A\	-tu(m)	8e\L	.
.	.	.	.	.	.	8f\	.
!LO:TX:t=P:problem=kreska pseudotaktowa	!	!	!	!	!	!	!
!	!	!	!	!LO:TX:t=P:problem=kreska pseudotaktowa	!	!	!
4E\	.	.	.	4c\	non	8g\	.
!	!	!	!	!	!	!LO:TX:t=P:problem=kreska pseudotaktowa	!
.	.	.	.	.	.	8a\J	.
=53-	=53-	=53-	=53-	=53-	=53-	=53-	=53-
2F\	.	8A\L	fa-	4d\	fa-	4.f\	.
.	.	8B-\J	.	.	.	.	.
.	.	2c\	.	4c\	.	.	.
.	.	.	.	.	.	8e-X\	.
!LO:TX:t=P:problem=kreska pseudotaktowa	!	!	!	!	!	!	!
!	!	!	!	!LO:TX:t=P:problem=kreska pseudotaktowa	!	!	!
!	!	!	!	!	!	!LO:TX:t=P:problem=kreska pseudotaktowa	!
2G\	.	.	.	2G/	-ctu(m)	2d\	.
!	!	!LO:N:acc=#	!	!	!	!	!
.	.	4Bn\	.	.	.	.	.
=54-	=54-	=54-	=54-	=54-	=54-	=54-	=54-
!	!	!	!	!	!	!LO:TX:t=P::problem=nad kreską taktową znaczek&colon; + z kółkiem	!
!	!	!	!	!LO:TX:t=P:problem=kreska pseudotaktowa	!	!	!
4C/	-ctum	1c\	-ctum	1r	.	4e#X\	-ctum
8.c\	con-	.	.	.	.	8.e#\	con-
16B-\	-ſub-	.	.	.	.	16e#\	-ſub-
4A\	-ſtan-	.	.	.	.	4f\	-ſtan-
!LO:TX:t=P:problem=kreska pseudotaktowa	!	!	!	!	!	!	!
!	!	!	!	!	!	!LO:TX:t=P:problem=kreska pseudotaktowa	!
4E\	-ti-	.	.	.	.	4g\	-ti-
=55-	=55-	=55-	=55-	=55-	=55-	=55-	=55-
4F\	-a-	4.c\	con-	2r	.	4a\	-a-
4C/	.	.	.	.	.	4eny\	-lem
.	.	8c\	-ſub-	.	.	.	.
*	*	*	*	*	*	*	*ij
4AA/	-le(m)	4c\	-ſtan-	4.f\	con-	4.a\	con-
*	*	*custos:d	*	*	*	*	*
!	!	!LO:TX:t=P::problem=na marginesie "kustosz słowny"&colon; alem	!	!	!	!	!
!LO:TX:t=P:problem=kreska pseudotaktowa	!	!	!	!	!	!	!
4FF/	.	4c\	-ti-	.	.	.	.
!	!	!	!	!LO:TX:t=P:problem=kreska pseudotaktowa	!	!	!
!	!	!	!	!	!	!LO:TX:t=P:problem=kreska pseudotaktowa	!
.	.	.	.	8e-X\	-ſub-	8a\	-ſub-
=56-	=56-	=56-	=56-	=56-	=56-	=56-	=56-
8BB-/L	Con-	2d\	-a-	8.d\	-stan-	2.f\	-ſtan-
8C/	.	.	.	.	.	.	.
.	.	.	.	16c\	-ti-	.	.
8D/	-ſub-	.	.	2B-\	-a-	.	.
8E/J	.	.	.	.	.	.	.
4F\	-ſtan-	2c\	-lem	.	.	.	.
!LO:TX:t=P:problem=kreska pseudotaktowa	!	!	!	!	!	!	!
!	!	!	!	!LO:TX:t=P:problem=kreska pseudotaktowa	!	!	!
!	!	!	!	!	!	!LO:TX:t=P:problem=kreska pseudotaktowa	!
4FF/	-ti-	.	.	4A/	-le(m)	4f\	-ti-
=57-	=57-	=57-	=57-	=57-	=57-	=57-	=57-
4GG/	-a-	(4B-y\	Pa-	8G/L	.	4d\	-a-
.	.	.	.	8D/J	.	.	.
4AA/	-le(m)	4A/)	.	2F/	Pa-	4c/	-lem
*	*	*	*	*	*	*	*Xij
(4BB-/	Pa-	2G/	.	.	.	4d\	Pa-
!LO:TX:t=P:problem=kreska pseudotaktowa	!	!	!	!	!	!	!
!	!	!	!	!LO:TX:t=P:problem=kreska pseudotaktowa	!	!	!
!	!	!	!	!	!	!LO:TX:t=P:problem=kreska pseudotaktowa	!
4C/)	.	.	.	4E/	.	4c/	.
=58-	=58-	=58-	=58-	=58-	=58-	=58-	=58-
!	!	!	!	!LO:TX:t=P:problem=kreska pseudotaktowa	!	!	!
!	!	!	!	!	!	!LO:TX:t=P:problem=kreska pseudotaktowa	!
4FF/	-tri	4A/	-tri	1F/	-tri	1c\	-tri
2FF/	per	2A/	per	.	.	.	.
!LO:TX:t=P:problem=kreska pseudotaktowa	!	!	!	!	!	!	!
4AA/	que(m)	4c\	quem	.	.	.	.
=59-	=59-	=59-	=59-	=59-	=59-	=59-	=59-
4.C/	om-	4.e\	om-	2G/	per	2.c/	per
8C/	-ni-	8e\	-ni-	.	.	.	.
!LO:TX:t=P:problem=kreska pseudotaktowa	!	!	!	!	!	!	!
!	!	!	!	!LO:TX:t=P:problem=kreska pseudotaktowa	!	!	!
2AA/	-a	2c\	-a	2A/	quem	.	.
!	!	!	!	!	!	!LO:TX:t=P:problem=kreska pseudotaktowa	!
.	.	.	.	.	.	4e\	quem
=60-	=60-	=60-	=60-	=60-	=60-	=60-	=60-
4.D/	fa-	2d\	fac-	8A/	per	4.f\	om-
.	.	.	.	8D/	quem	.	.
.	.	.	.	4.d\	om-	.	.
8C/	.	.	.	.	.	8f\	-ni-
!	!	!	!	!	!	!LO:TX:t=P:problem=kreska pseudotaktowa	!
4BB-/	.	2G/	-ta	.	.	2e\	-a
.	.	.	.	8d\	-ni-	.	.
!LO:TX:t=P:problem=kreska pseudotaktowa	!	!	!	!	!	!	!
!	!	!	!	!LO:TX:t=P:problem=kreska pseudotaktowa	!	!	!
4C/	.	.	.	4c\	-a	.	.
=61-	=61-	=61-	=61-	=61-	=61-	=61-	=61-
!	!	!	!	!LO:N:acc=#	!	!	!
2.GG/	.	1G/,	sunt.	4Bn\	fa-	2.d\	fa-
.	.	.	.	2c\	.	.	.
*custos:C	*	*	*	*	*	*	*
!	!	!	!	!LO:TX:t=P:problem=kreska pseudotaktowa	!	!	!
!	!	!	!	!	!	!LO:TX:t=P:problem=kreska pseudotaktowa	!
4GG/	-cta	.	.	4Bny\	-cta	4d\	-cta
=62-	=62-	=62-	=62-	=62-	=62-	=62-	=62-
2.C/	ſunt	4r	.	2c\	ſunt.	2.e\	ſunt
.	.	4G/	Qui	.	.	.	.
!	!	!	!	!LO:TX:t=P:problem=kreska pseudotaktowa	!	!	!
.	.	4c\	p(ro)p-	2r	.	.	.
!LO:TX:t=P:problem=kreska pseudotaktowa	!	!	!	!	!	!	!
!	!	!	!	!	!	!LO:TX:t=P:problem=kreska pseudotaktowa	!
4C/	qui	8c\	-(te)r	.	.	4e\	qui
.	.	8B-\	nos	.	.	.	.
=63-	=63-	=63-	=63-	=63-	=63-	=63-	=63-
4F\	p(ro)p-	4.A/	ho-	2F/	Qui	4a\	pro-
8F\	-(te)r	.	.	.	.	8a\	-pter
*	*	*	*	*	*	*custos:f	*
8E\	nos	16B-\LL	.	.	.	8g\	nos
.	.	16c\JJ	.	.	.	.	.
!	!	!	!	!LO:TX:t=P:problem=kreska pseudotaktowa	!	!	!
4.D/	ho-	[2d\	.	2F/	prop-	4.f\	Ho-
!LO:TX:t=P:problem=kreska pseudotaktowa	!	!	!	!	!	!	!
!	!	!	!	!	!	!LO:TX:t=P:problem=kreska pseudotaktowa	!
8C/	.	.	.	.	.	8e\	.
=64-	=64-	=64-	=64-	=64-	=64-	=64-	=64-
8BB-/L	.	8d\L]	.	2G/	-ter	1.d\	.
8AA/J	.	8c\J	.	.	.	.	.
2GG/	.	8B-\L	.	.	.	.	.
.	.	8c\	.	.	.	.	.
!	!	!	!	!LO:TX:t=P:problem=kreska pseudotaktowa	!	!	!
.	.	8d\	.	2A/	nos	.	.
.	.	16c\L	.	.	.	.	.
.	.	16B-\JJ	.	.	.	.	.
!LO:TX:t=P:problem=kreska pseudotaktowa	!	!	!	!	!	!	!
4FF#X/	.	2A/	.	.	.	.	.
=65-	=65-	=65-	=65-	=65-	=65-	=65-	=65-
2.GG/	.	.	.	2.B-y\	h(o-	.	.
.	.	8G/L	.	.	.	.	.
*	*	*custos:G	*	*	*	*	*
.	.	8F/J	.	.	.	.	.
.	.	4.G/	.	.	.	2d\	-mi-
!	!	!	!	!LO:TX:t=P:problem=kreska pseudotaktowa	!	!	!
4GG/	-mi-	.	.	4B-\	-mi)-	.	.
.	.	8G/	-mi-	.	.	.	.
=66-	=66-	=66-	=66-	=66-	=66-	=66-	=66-
!LO:TX:t=P:problem=kreska pseudotaktowa	!	!	!	!	!	!	!
!	!	!	!	!	!	!LO:TX:t=P:problem=kreska pseudotaktowa	!
1D\	-nes	4F#X/	-nes	4A\	-nes	1d\	-nes
*	*	*	*	*custos:d	*	*	*
.	.	4D/	et	4d\	et	.	.
.	.	4F#X/	p(ro)p-	4d\	prop-	.	.
!	!	!	!	!LO:TX:t=P:problem=kreska pseudotaktowa	!	!	!
.	.	4F#/	-(te)r	4A\	-ter	.	.
=67-	=67-	=67-	=67-	=67-	=67-	=67-	=67-
!	!	!	!	!LO:TX:t=P:problem=kreska pseudotaktowa	!	!	!
4r	.	1G/	no-	[1B-\	noſ-	4r	.
4GG/	et	.	.	.	.	4g\	et
4BB-/	p(ro)p-	.	.	.	.	4d\	prop-
!LO:TX:t=P:problem=kreska pseudotaktowa	!	!	!	!	!	!	!
!	!	!	!	!	!	!LO:TX:t=P:problem=kreska pseudotaktowa	!
4GG/	-(te)r	.	.	.	.	4B-y/	.
=68-	=68-	=68-	=68-	=68-	=68-	=68-	=68-
8BB-/L	no-	2D/	-ſtram	4B-\]	.	8d\L	-ter
8C/J	.	.	.	.	.	8e\J	.
2D/	.	.	.	8A/	-tram	4f\	no-
.	.	.	.	8A/	ſa-	.	.
.	.	2E/	ſa-	4G/	-lu-	4e\	.
!	!	!	!	!	!	!LO:TX:t=P:problem=kreska pseudotaktowa	!
8C/	.	.	.	8A/	-te(m)	4e\	-ſtram
!LO:TX:t=P:problem=kreska pseudotaktowa	!	!	!	!	!	!	!
!	!	!	!	!LO:TX:t=P:problem=kreska pseudotaktowa	!	!	!
8C/	-ſtram	.	.	8A/	ſa-	.	.
=69-	=69-	=69-	=69-	=69-	=69-	=69-	=69-
4BB-/	ſa-	2Fny/	-lu-	(4B-\	-lu-	8d\L	ſa-
.	.	.	.	.	.	8e\J	.
4AA/	-lu-	.	.	4c\)	.	2f\	-lu-
4BB-/	.	2G/	.	8B-\	-te(m)	.	.
.	.	.	.	8d\	noſ-	.	.
!LO:TX:t=P:problem=kreska pseudotaktowa	!	!	!	!	!	!	!
!	!	!	!	!	!	!LO:TX:t=P:problem=kreska pseudotaktowa	!
4C/	.	.	.	8c\	tram	4e\	-tem
!	!	!	!	!LO:TX:t=P:problem=kreska pseudotaktowa	!	!	!
.	.	.	.	8B-\	ſa-	.	.
=70-	=70-	=70-	=70-	=70-	=70-	=70-	=70-
1FFny/	-tem	1F/	-tem	4A\	-lu-	4f\	noſ-
.	.	.	.	2B-\	.	8e-X\	-tra(m)
.	.	.	.	.	.	8d\	ſa-
!	!	!	!	!	!	!LO:TX:t=P:problem=kreska pseudotaktowa	!
.	.	.	.	.	.	2c/	-lu-
!	!	!	!	!LO:TX:t=P:problem=kreska pseudotaktowa	!	!	!
.	.	.	.	4A\	.	.	.
=71-	=71-	=71-	=71-	=71-	=71-	=71-	=71-
2r	.	1B-\	deſ-	2B-\	-tem	2d/	-tem
!LO:TX:t=P:problem=kreska pseudotaktowa	!	!	!	!	!	!	!
!	!	!	!	!LO:TX:t=P::problem=kreska pseudotaktowa&colon;na nucie	!	!	!
2BB-/	de-	.	.	1d\	de-	4r	.
!	!	!	!	!	!	!LO:TX:t=P:problem=kreska pseudotaktowa	!
.	.	.	.	.	.	4f\	de-
=72-	=72-	=72-	=72-	=72-	=72-	=72-	=72-
!	!	!	!	!	!	!LO:TX:t=P:problem=kreska pseudotaktowa	!
2GG/	-ſcen-	2B-\	-cen-	.	.	1eny\	-ſcen-
!	!	!	!	!LO:TX:t=P::problem=kreska pseudotaktowa&colon;na nucie	!	!	!
4AA/	-dit	1A\	.	1c\	-ſcen-	.	.
*custos:FF	*	*	*	*	*	*	*
4BB-/	de-	.	.	.	.	.	.
=73-	=73-	=73-	=73-	=73-	=73-	=73-	=73-
2FF#X/	-ſcen-	.	.	.	.	2d\	-dit
*	*	*	*	*	*	*	*ij
!	!	!	!	!LO:TX:t=P::problem=kreska pseudotaktowa&colon;na nucie	!	!	!
!	!	!	!	!	!	!LO:TX:t=P:problem=kreska pseudotaktowa	!
4GG/	-dit	1G/	-dit	1B-\	.	2d\	de-
*	*ij	*	*	*	*	*	*
!LO:TX:t=P:problem=kreska pseudotaktowa	!	!	!	!	!	!	!
4G\	de-	.	.	.	.	.	.
=74-	=74-	=74-	=74-	=74-	=74-	=74-	=74-
2E\	-ſcen-	.	.	.	.	2c/	-ſcen-
!	!	!	!	!LO:TX:t=P:problem=kreska pseudotaktowa	!	!	!
4F\	-dit	2A/	de	2A/	-dit	4c/	-dit
*	*Xij	*	*	*	*	*	*
!LO:TX:t=P:problem=kreska pseudotaktowa	!	!	!	!	!	!	!
!	!	!	!	!	!	!LO:TX:t=P:problem=kreska pseudotaktowa	!
4F\	de	.	.	.	.	4f\	de-
=75-	=75-	=75-	=75-	=75-	=75-	=75-	=75-
!	!	!	!	!LO:N:acc=#	!	!	!
0G\	c(ae)-	0G/	c(ae)-	2BnX\	de	2f\	-ſcen-
!	!	!	!	!LO:TX:t=P::problem=kreska pseudotaktowa&colon;na nucie	!	!	!
.	.	.	.	1c\	c(ae)-	4.e-X\	-dit
*	*	*	*	*	*	*	*Xij
!	!	!	!	!	!	!LO:TX:t=P:problem=kreska pseudotaktowa	!
.	.	.	.	.	.	8e-\	de
=76-	=76-	=76-	=76-	=76-	=76-	=76-	=76-
!	!	!	!	!	!	!LO:TX:t=P:problem=kreska pseudotaktowa	!
.	.	.	.	.	.	1d\	c(ae)-
!	!	!	!	!LO:TX:t=P:problem=kreska pseudotaktowa	!	!	!
.	.	.	.	2Bny\	.	.	.
=77-	=77-	=77-	=77-	=77-	=77-	=77-	=77-
!	!	!LO:N:vis=0	!	!	!	!LO:N:acc=#	!
!	!	!	!	!LO:TX:t=P:problem=kreska pseudotaktowa	!	!	!
!LO:N:vis=0	!	!	!	!	!	!LO:TX:t=P:problem=kreska pseudotaktowa	!
1C/;	-lis.	1G/;	-lis	1c\;<	-lis.	1en\;<	-lis.
=78||	=78||-	=78-	=78||-	=78-	=78||-	=78||-	=78||-
*M2/2	*	*M2/2	*	*M2/2	*	*	*
*met(c|)	*	*met(c|)	*	*met(c|)	*	*	*
!LO:TX:t=P:problem=E wielkie, przed kluczem	!	!LO:TX:t=P:problem=E wielkie przed kluczem, na pocz. pięciolinii	!	!LO:TX:t=P:problem=E wielkie przed kluczem, na pocz. pięciolinii	!	!LO:TX:t=P:problem=E wielkie przed kluczem, na pocz. pięciolinii	!
2F\	ET	2A/	ET	2c\	Et	2f\	Et
4B-\	in-	4.B-\	in-	4d\	in-	4f\	in-
!LO:TX:t=P:problem=kreska pseudotaktowa	!	!	!	!	!	!	!
!	!	!	!	!LO:TX:t=P:problem=kreska pseudotaktowa	!	!	!
!	!	!	!	!	!	!LO:TX:t=P:problem=kreska pseudotaktowa	!
4G\	-car-	.	.	4eny\	-car-	4g\	-car-
.	.	8B-\	-car-	.	.	.	.
=79-	=79-	=79-	=79-	=79-	=79-	=79-	=79-
4.F\	-na-	4.c\	-na-	4.f\	-na-	4.a\	-na-
8F\	-tus	8c\	-tus	8f\	-tus	8a\	-tus
4D/	e(st)	4d\	est	4f\	est	4a\	est
!LO:TX:t=P:problem=kreska pseudotaktowa	!	!	!	!	!	!	!
!	!	!	!	!LO:TX:t=P:problem=kreska pseudotaktowa	!	!	!
!	!	!	!	!	!	!LO:TX:t=P:problem=kreska pseudotaktowa	!
4BB-/	de	4d\	de	4f\	de	4b-\	de
=80-	=80-	=80-	=80-	=80-	=80-	=80-	=80-
4C/	Spi-	4c\	Spi-	4e-X\	Spi-	4g\	Spi-
8C/	-ri-	8c\	-ri-	8.e-\	-ri-	8g\	-ri-
8C/	-tu	8c\	-tu	.	.	8g\	-tu
.	.	.	.	16e-\	-tu	.	.
!LO:TX:t=P:problem=kreska pseudotaktowa	!	!	!	!	!	!	!
!	!	!	!	!LO:TX:t=P:problem=kreska pseudotaktowa	!	!	!
!	!	!	!	!	!	!LO:TX:t=P:problem=kreska pseudotaktowa	!
2GG/	San-	4.c\	San-	2d\	San-	2g\	San-
!	!	!LO:N:acc=#	!	!	!	!	!
.	.	8Bn\	.	.	.	.	.
=81-	=81-	=81-	=81-	=81-	=81-	=81-	=81-
!	!	!	!	!LO:N:acc=#	!	!	!
!	!	!	!	!LO:TX:t=P:problem=kreska pseudotaktowa	!	!	!
!	!	!	!	!	!	!LO:TX:t=P:problem=kreska pseudotaktowa	!
1C/	-cto	1c\,<	-cto.	1en\	-cto	1g\,<	-cto
=82-	=82-	=82-	=82-	=82-	=82-	=82-	=82-
4F\	ex	4F/	Ex	4.c\	Ex	4a\	Ex
4E\	Ma-	4G/	Ma-	.	.	4g\	Ma-
.	.	.	.	8c\	Ma-	.	.
4F\	-ri-	4A/	-ri-	4c\	-ri-	4.f\	-ri-
*custos:FF	*	*	*	*	*	*	*
!LO:TX:t=P:problem=kreska pseudotaktowa	!	!	!	!	!	!	!
!	!	!	!	!LO:TX:t=P:problem=kreska pseudotaktowa	!	!	!
4BB-/	-a	4B-y\	-a	4d\	-a	.	.
!	!	!	!	!	!	!LO:TX:t=P:problem=kreska pseudotaktowa	!
.	.	.	.	.	.	8f\	-a
=83-	=83-	=83-	=83-	=83-	=83-	=83-	=83-
4.FF/	Vir-	4.c\	Vir-	4.A/	Vir-	4.f\	Vir-
8GG/	-gi-	8B-\	-gi-	8G/	-gi-	8d\	-gi-
4D/	-ne	4A/	-ne	4F/	-ne	4c/	-ne
!LO:TX:t=P:problem=kreska pseudotaktowa	!	!	!	!	!	!	!
!	!	!	!	!LO:TX:t=P:problem=kreska pseudotaktowa	!	!	!
!	!	!	!	!	!	!LO:TX:t=P:problem=kreska pseudotaktowa	!
4AA/	et	4A/	et	4c\	et	4f\	Et
=84-	=84-	=84-	=84-	=84-	=84-	=84-	=84-
4.BB-/	Ho-	8.G/	H-	4.B-y\	Ho-	4d\	Ho-
.	.	16F/	-mo	.	.	.	.
.	.	2F/	fac-	.	.	4d\	-mo
8BB-/	-mo	.	.	8A/	-mo	.	.
4.C/	fac-	.	.	4.G/	Fac-	4.c/	fac-
.	.	4E/	-t(us)	.	.	.	.
!LO:TX:t=P:problem=kreska pseudotaktowa	!	!	!	!	!	!	!
!	!	!	!	!LO:TX:t=P:problem=kreska pseudotaktowa	!	!	!
!	!	!	!	!	!	!LO:TX:t=P:problem=kreska pseudotaktowa	!
8C/	-t(us)	.	.	8G/	-t(us)	8c/	-t(us)
=85-	=85-	=85-	=85-	=85-	=85-	=85-	=85-
2FF/	e(st)	4F,</	e(st).	2A/	e(st)	2c/	e(st)
.	.	4c\	et	.	.	.	.
!LO:TX:t=P:problem=kreska pseudotaktowa	!	!	!	!	!	!	!
2F\	et	2A/	Ho-	4c\	et	4r	.
!	!	!	!	!LO:TX:t=P::problem=kreska pseudotaktowa&colon;między nutą a kropką	!	!	!
.	.	.	.	4.A\	Ho-	2a\	Et
=86-	=86-	=86-	=86-	=86-	=86-	=86-	=86-
2D/	Ho-	4F/	-mo	.	.	.	.
.	.	.	.	16B-\LL	.	.	.
.	.	.	.	16c\JJ	.	.	.
*	*	*custos:f	*	*	*	*	*
.	.	4f\	et	4d\	.	2f\	Ho-
!LO:TX:t=P:problem=kreska pseudotaktowa	!	!	!	!	!	!	!
2AA/	-mo	4.f\	Ho-	[4c\	.	.	.
!	!	!	!	!LO:TX:t=P::problem=kreska pseudotaktowa&colon;na nucie	!	!	!
!	!	!	!	!	!	!LO:TX:t=P:problem=kreska pseudotaktowa	!
.	.	.	.	2c\]	.	4f\	-mo
.	.	8e-X\	-mo	.	.	.	.
=87-	=87-	=87-	=87-	=87-	=87-	=87-	=87-
2.BB-/	fac-	2.d\	Fac-	.	.	2.f\	fac-
.	.	.	.	8B-\L	-mo	.	.
.	.	.	.	8A\J	.	.	.
.	.	.	.	4.B-\	fac-	.	.
4BB-/	-t(us)	4d\	-t(us)	.	.	4f\	-t(us)
!	!	!	!	!LO:TX:t=P:problem=kreska pseudotaktowa	!	!	!
.	.	.	.	8B-\	-t(us)	.	.
=88-	=88-	=88-	=88-	=88-	=88-	=88-	=88-
!LO:N:vis=0	!	!LO:N:vis=0	!	!	!	!LO:N:vis=0	!
!	!	!	!	!LO:TX:t=P:problem=kreska pseudotaktowa	!	!	!
!	!	!	!	!	!	!LO:TX:t=P:problem=kreska pseudotaktowa	!
1FF/;	est	1c\;<	est.	1A\;	est.	1f\;	e(st).
=89||	=89||-	=89-	=89||-	=89||-	=89||-	=89||-	=89||-
*M2/2	*	*M2/2	*	*M2/2	*	*M2/2	*
*met(c|)	*	*met(c|)	*	*met(c|)	*	*met(c|)	*
!LO:TX:t=P:problem=C wielkie, przed kluczem	!	!LO:TX:t=P:problem=C wielkie, przed kluczem	!	!	!	!LO:TX:t=P:problem=C wielkie przed kluczem, na pocz. pięciolinii	!
2FF/	CRu-	2F/	CRu-	2A/	CRu-	2c/	CRu-
!LO:TX:t=P:problem=kreska pseudotaktowa	!	!	!	!	!	!	!
!	!	!	!	!LO:TX:t=P:problem=kreska pseudotaktowa	!	!	!
!	!	!	!	!	!	!LO:TX:t=P:problem=kreska pseudotaktowa	!
2FF/	-ci-	2A/	-ci-	2c\	-ci-	2f\	-ci-
=90-	=90-	=90-	=90-	=90-	=90-	=90-	=90-
2FF/	-fi-	2F/	-fi-	2A/	-fi-	2c/	-fi-
!LO:TX:t=P:problem=kreska pseudotaktowa	!	!	!	!	!	!	!
!	!	!	!	!LO:TX:t=P:problem=kreska pseudotaktowa	!	!	!
!	!	!	!	!	!	!LO:TX:t=P:problem=kreska pseudotaktowa	!
2FF/	-x(us)	2A/	-xus	2c\	-xus	2f\	-xus
=91-	=91-	=91-	=91-	=91-	=91-	=91-	=91-
2.FF/	e-	2.c\	e-	2.f\	e-	2.a\	e-
!LO:TX:t=P:problem=kreska pseudotaktowa	!	!	!	!	!	!	!
!	!	!	!	!LO:TX:t=P:problem=kreska pseudotaktowa	!	!	!
!	!	!	!	!	!	!LO:TX:t=P:problem=kreska pseudotaktowa	!
4FF/	-ti-	4c\	-ti-	4f\	-ti-	4a\	-ti-
=92-	=92-	=92-	=92-	=92-	=92-	=92-	=92-
2FF/	-am	2A/	-am	2c\	-am	2f\	-am
!LO:TX:t=P:problem=kreska pseudotaktowa	!	!	!	!	!	!	!
!	!	!	!	!LO:TX:t=P:problem=kreska pseudotaktowa	!	!	!
!	!	!	!	!	!	!LO:TX:t=P:problem=kreska pseudotaktowa	!
2FF/	pro	2c\	pro	2f\	pro	2a\	pro
=93-	=93-	=93-	=93-	=93-	=93-	=93-	=93-
(2BB-/	no-	4.B-\	no-	(2d\	no-	8g\L	no-
.	.	.	.	.	.	8f\J	.
.	.	.	.	.	.	2f\	.
.	.	8A/	.	.	.	.	.
!	!	!	!	!LO:TX:t=P:problem=kreska pseudotaktowa	!	!	!
2C/)	.	2G/	.	2c\)	.	.	.
!	!	!	!	!	!	!LO:TX:t=P:problem=kreska pseudotaktowa	!
.	.	.	.	.	.	4e\	.
=94-	=94-	=94-	=94-	=94-	=94-	=94-	=94-
*custos:F	*	*	*	*	*	*	*
!LO:TX:t=P:problem=kreska pseudotaktowa	!	!	!	!	!	!	!
!	!	!	!	!	!	!LO:TX:t=P:problem=kreska pseudotaktowa	!
1FF/	-bis	2A/	-bis	2c\	-bis	1f\	-bis
!	!	!	!	!LO:TX:t=P:problem=kreska pseudotaktowa	!	!	!
.	.	2c\	ſub	2A/	ſub	.	.
=95-	=95-	=95-	=95-	=95-	=95-	=95-	=95-
4r	.	4.A/	Pon-	4.F/	Pon-	4r	.
4F\	ſub	.	.	.	.	2a\	Sub
.	.	8A/	-ti-	8G/	-ti-	.	.
4.D/	Pon-	4F/	-o	4.A/	-o	.	.
!	!	!	!	!	!	!LO:TX:t=P::problem=kreska pseudotaktowa&colon;między nutą a kropką	!
.	.	4F/	Pi-	.	.	4.f\	Pon-
!LO:TX:t=P:problem=kreska pseudotaktowa	!	!	!	!	!	!	!
!	!	!	!	!LO:TX:t=P:problem=kreska pseudotaktowa	!	!	!
8D/	-ti-	.	.	8A/	Pi-	.	.
=96-	=96-	=96-	=96-	=96-	=96-	=96-	=96-
4BB-/	-o	(2G/	-la-	4B-\	-la-	.	.
.	.	.	.	.	.	8f\	-ti-
4C/	Pi-	.	.	4G/	.	8.e\	-o
.	.	.	.	.	.	16e\	Pi-
*	*	*custos:G	*	*	*	*	*
!	!	!	!	!	!	!LO:TX:t=P:problem=kreska pseudotaktowa	!
8FF/L	-la-	2F/)	.	8A\L	.	2f\	-la-
8GG/	.	.	.	8B-\J	.	.	.
!	!	!	!	!LO:TX:t=P:problem=kreska pseudotaktowa	!	!	!
8AA/	.	.	.	4c\	.	.	.
!LO:TX:t=P:problem=kreska pseudotaktowa	!	!	!	!	!	!	!
8FF/J	.	.	.	.	.	.	.
=97-	=97-	=97-	=97-	=97-	=97-	=97-	=97-
4C/	-to	4G/	-to	4c\	-to	4e\	-to
2C/	Paſ-	2G/	Paſ-	2c\	Paſ-	2e\	Paſ-
!LO:TX:t=P:problem=kreska pseudotaktowa	!	!	!	!	!	!	!
!	!	!	!	!LO:TX:t=P:problem=kreska pseudotaktowa	!	!	!
!	!	!	!	!	!	!LO:TX:t=P:problem=kreska pseudotaktowa	!
4AA/	-s(us)	4A/	-sus	4c\	-sus	4f#X\	-sus
=98-	=98-	=98-	=98-	=98-	=98-	=98-	=98-
2GG/	et	2B-\	et	2.d\	et	2g\	et
!LO:TX:t=P:problem=kreska pseudotaktowa	!	!	!	!	!	!	!
!	!	!	!	!	!	!LO:TX:t=P:problem=kreska pseudotaktowa	!
2FF#X/	ſe-	1A\	ſe-	.	.	2a\	ſe-
!	!	!	!	!LO:TX:t=P:problem=kreska pseudotaktowa	!	!	!
.	.	.	.	4c\	.	.	.
=99-	=99-	=99-	=99-	=99-	=99-	=99-	=99-
*lig	*	*	*	*	*	*lig	*
!	!	!	!	!LO:TX:t=P:problem=kreska pseudotaktowa	!	!	!
1GG/	-pul-	.	.	[1B-\	.	1d\	-pul-
.	.	4G/	-pul-	.	.	.	.
.	.	4F/	.	.	.	.	.
=100-	=100-	=100-	=100-	=100-	=100-	=100-	=100-
*col	*	*	*	*	*	*	*
[1C/	.	4E/	.	4B-\]	.	1.c\	.
.	.	2F/	.	4A/	ſe-	.	.
.	.	.	.	4.G/	-pul-	.	.
.	.	4E/	-tus	.	.	.	.
!	!	!	!	!LO:TX:t=P:problem=kreska pseudotaktowa	!	!	!
.	.	.	.	8G/	-tus	.	.
*Xlig	*	*	*	*	*	*Xlig	*
=101-	=101-	=101-	=101-	=101-	=101-	=101-	=101-
*	*	*	*	*custos:c	*	*	*
!	!	!LO:N:vis=1	!	!	!	!	!
!	!	!	!	!LO:N:vis=1	!	!	!
!	!	!LO:TX:t=P:problem=kreska pseudotaktowa	!	!	!	!	!
!	!	!	!	!LO:TX:t=P:problem=kreska pseudotaktowa	!	!	!
2C/]	.	0F/;	est.	0A\	est.	.	.
!LO:TX:t=P:problem=kreska pseudotaktowa	!	!	!	!	!	!	!
2C/	-t(us)	.	.	.	.	2c/	-tus
*Xcol	*	*	*	*	*	*	*
=102-	=102-	=102-	=102-	=102-	=102-	=102-	=102-
!LO:TX:t=P:problem=kreska pseudotaktowa	!	!	!	!	!	!	!
1FFny/	est.	.	.	.	.	1c\;	est.
=103-	=103-	=103-	=103-	=103-	=103-	=103-	=103-
*M3/1	*	*M3/1	*	*M3/1	*	*M3/1	*
1FF/	Et	1A\	Et	1c\	Et	1fny\	Et
1BB-/	re-	1B-\	re-	1d\	re-	1f\	re-
!LO:TX:t=P:problem=kreska pseudotaktowa	!	!	!	!	!	!	!
!	!	!	!	!LO:TX:t=P:problem=kreska pseudotaktowa	!	!	!
1C/	-ſur-	1G/	-ſur-	1c\	-ſur-	1e\	-ſur-
=104-	=104-	=104-	=104-	=104-	=104-	=104-	=104-
0FF/	-re-	0A\	-re-	0c\	-re-	0f\	-re-
!LO:TX:t=P:problem=kreska pseudotaktowa	!	!	!	!	!	!	!
!	!	!	!	!LO:TX:t=P:problem=kreska pseudotaktowa	!	!	!
1FF/	-xit	1A\	-xit	1c\	-xit	1f\	-xit
=105-	=105-	=105-	=105-	=105-	=105-	=105-	=105-
1.C/	ter-	1.G/	ter-	1.c\	ter-	1.e\	ter-
2C/	-ri-	2G/	-ti-	2c\	-ti-	2e\	-ti-
!LO:TX:t=P:problem=kreska pseudotaktowa	!	!	!	!	!	!	!
!	!	!	!	!LO:TX:t=P:problem=kreska pseudotaktowa	!	!	!
1AA/	-a	1A\	-a	1c\	-a	1f#X\	-a
=106-	=106-	=106-	=106-	=106-	=106-	=106-	=106-
1GG/	di-	1B-\	di-	1d\	di-	1g\	di-
1GG/	-e	1B-\	-e	1d\	-e	1g\	-e
!LO:TX:t=P:problem=kreska pseudotaktowa	!	!	!	!	!	!	!
!	!	!	!	!LO:TX:t=P:problem=kreska pseudotaktowa	!	!	!
1FF#X/	ſe-	1d\	ſe-	1d\	ſe-	1a\	ſe-
=107-	=107-	=107-	=107-	=107-	=107-	=107-	=107-
1.GG/	-cun-	1.B-\	-cun-	1.d\	-cun-	1.g\	-cun-
2GG/	-du(m)	2B-\	-du(m)	2d\	-dum	2g\	-dum
*custos:C	*	*custos:A	*	*	*	*	*
!LO:TX:t=P:problem=kreska pseudotaktowa	!	!	!	!	!	!	!
!	!	!	!	!LO:TX:t=P:problem=kreska pseudotaktowa	!	!	!
1AA/	Scri-	1A\	ſcri-	1c\	ſcri-	1f\	.
=108-	=108-	=108-	=108-	=108-	=108-	=108-	=108-
!	!	!	!	!LO:TX:t=P:problem=kreska pseudotaktowa	!	!	!
0.C/	-ptu-	(<1A\	-ptu-	0.c\	-ptu-	1f\	ſcri-
.	.	2G/	.	.	.	2e\	.
.	.	2F/)	.	.	.	2d\	-ptu-
.	.	1G/	.	.	.	1e\	.
=109-	=109-	=109-	=109-	=109-	=109-	=109-	=109-
!LO:TX:t=P:problem=kreska pseudotaktowa	!	!	!	!	!	!	!
!	!	!	!	!LO:TX:t=P:problem=kreska pseudotaktowa	!	!	!
0.FFny/	-ras	0.A\	-ras	0.c\	-ras	0.f\	-ras
=110-	=110-	=110-	=110-	=110-	=110-	=110-	=110-
!	!	!	!	!LO:TX:t=P:problem=kreska pseudotaktowa	!	!	!
1r	.	1r	.	1r	.	1r	.
1.F\	Et	1.A\	Et	1c\	Et	1.f\	Et
.	.	.	.	1c\	a-	.	.
!LO:TX:t=P:problem=kreska pseudotaktowa	!	!	!	!	!	!	!
2F\	a-	2A/	a-	.	.	2f\	a-
=111-	=111-	=111-	=111-	=111-	=111-	=111-	=111-
!	!	!	!	!LO:TX:t=P::problem=kreska pseudotaktowa&colon;między nutą a kropką	!	!	!
1.B-\	-ſcen-	1.B-\	-ſcen-	1.d\	-ſcen-	1.f\	-ſcen-
2B-\	-dit	2B-\	-dit	2d\	-dit	2f\	-dit
!LO:TX:t=P:problem=kreska pseudotaktowa	!	!	!	!	!	!	!
1G\	in	1B-\	in	1e\	in	1g\	in
=112-	=112-	=112-	=112-	=112-	=112-	=112-	=112-
!	!	!	!	!LO:TX:t=P:problem=kreska pseudotaktowa	!	!	!
1F\	c(ae)-	1c\	c(ae)-	1f\	c(ae)-	1a\	c(ae)-
1F\	-lum	1c\	-lu(m)	1f\	-lum	1a\	-lum
*	*	*	*	*	*	*custos:g	*
!LO:TX:t=P:problem=kreska pseudotaktowa	!	!	!	!	!	!	!
1F\	ſe-	1c\	ſe-	1f\	ſe-	1a\	ſe-
=113-	=113-	=113-	=113-	=113-	=113-	=113-	=113-
!	!	!	!	!LO:TX:t=P::problem=kreska pseudotaktowa&colon;na nucie	!	!	!
0C/	-det	0c\	-det	0e-X\	-det	0g\	-det
!	!	!LO:TX:t=P:problem=d skreslone	!	!	!	!	!
!	!	!LO:TX:t=c	!	!	!	!	!
!LO:TX:t=P:problem=kreska pseudotaktowa	!	!	!	!	!	!	!
1C/	ad	1d\	ad	1e-\	ad	1g\	ad
=114-	=114-	=114-	=114-	=114-	=114-	=114-	=114-
!	!	!LO:N:acc=#	!	!LO:TX:t=P:problem=kreska pseudotaktowa	!	!	!
1G\	dex-	1Bn\	dex-	1d\	dex-	1g\	dex-
2G\	-te-	2B\	-te-	2d\	-te-	2g\	-te-
2E-X\	-ra(m)	2c\	-ram	2e-X\	-ram	2g\	-ram
*	*	*	*	*custos:en	*	*	*
!	!	!LO:N:acc=#	!	!	!	!	!
!LO:TX:t=P:problem=kreska pseudotaktowa	!	!	!	!	!	!	!
!	!	!	!	!LO:TX:t=P:problem=kreska pseudotaktowa	!	!	!
1G\	Pa-	1Bn\	Pa-	1d\	Pa-	1g\	Pa-
=115-	=115-	=115-	=115-	=115-	=115-	=115-	=115-
!	!	!	!	!LO:N:acc=#	!	!	!
0C/,<	-tris	0c\,<	-tris.	0enX\	-tris.	0g\,<	-tris.
!	!	!	!	!LO:TX:t=P:problem=kreska pseudotaktowa	!	!	!
1C/	Et	1c\	Et	1e\	Et	1g\	Et
=116-	=116-	=116-	=116-	=116-	=116-	=116-	=116-
*M2/2	*	*M2/2	*	*M2/2	*	*M2/2	*
*met(c|)	*	*met(c|)	*	*met(c|)	*	*met(c|)	*
4.F\	i-	4.c\	i-	4.f\	i-	4.a\	i-
8F\	-te-	8c\	-te-	8f\	-te-	8a\	-te-
4FF/	-rum	4c\	-ru(m)	4f\	-rum	4a\	-rum
*	*	*custos:d	*	*	*	*	*
!LO:TX:t=P:problem=kreska pseudotaktowa	!	!	!	!	!	!	!
!	!	!	!	!LO:TX:t=P:problem=kreska pseudotaktowa	!	!	!
!	!	!	!	!	!	!LO:TX:t=P:problem=kreska pseudotaktowa	!
4BB-/	Ven-	4d\	Ven-	4f\	Ven-	4b-\	Ven-
=117-	=117-	=117-	=117-	=117-	=117-	=117-	=117-
4.F\	-tu-	4.c\	-tu-	4.f\	-tu-	4.a\	-tu-
8F\	-r(us)	8c\	-rus	8f\	-rus	8a\	-r(us)
4G\	est	4B-y\	est	4d\	est	4g\	eſt
!LO:TX:t=P:problem=kreska pseudotaktowa	!	!	!	!	!	!	!
!	!	!	!	!LO:TX:t=P:problem=kreska pseudotaktowa	!	!	!
!	!	!	!	!	!	!LO:TX:t=P:problem=kreska pseudotaktowa	!
4E-X\	c(um)	4c\	cum	4e-X\	cum	4g\	cum
=118-	=118-	=118-	=118-	=118-	=118-	=118-	=118-
4.F\	glo-	4.A/	glo-	4.c\	glo-	4.f\	glo-
*custos:C	*	*	*	*	*	*	*
8FF/	-ri-	8A/	-ri-	8c\	-ri-	8f\	-ri-
!LO:TX:t=P:problem=kreska pseudotaktowa	!	!	!	!	!	!	!
!	!	!	!	!LO:TX:t=P:problem=kreska pseudotaktowa	!	!	!
!	!	!	!	!	!	!LO:TX:t=P:problem=kreska pseudotaktowa	!
2C/	-a	2G,</	-a,	2c\	-a	2e\	-a
=119-	=119-	=119-	=119-	=119-	=119-	=119-	=119-
4.F\	iu-	4.c\	iu-	8c\L	iu-	4.a\	iu-
.	.	.	.	16d\L	.	.	.
.	.	.	.	16eny\JJ	.	.	.
.	.	.	.	8.f\	.	.	.
8F\	-di-	8c\	-di-	.	.	8a\	-di-
.	.	.	.	16f\	-di-	.	.
!LO:TX:t=P:problem=przed nutą skreślona kreska taktowa	!	!	!	!	!	!	!
4G\	-ca-	4B-\	-ca-	4d\	-ca-	4.g\	-ca-
!LO:TX:t=P:problem=kreska pseudotaktowa	!	!	!	!	!	!	!
!	!	!	!	!LO:TX:t=P:problem=kreska pseudotaktowa	!	!	!
4E-X\	-re	4c\	-re	4e-X\	-re	.	.
!	!	!	!	!	!	!LO:TX:t=P:problem=kreska pseudotaktowa	!
.	.	.	.	.	.	8g\	-re
=120-	=120-	=120-	=120-	=120-	=120-	=120-	=120-
2F\	Vi-	2A/	Vi-	2c\	Vi-	2f\	Vi-
!LO:TX:t=P:problem=przed nutą skreślona kreska taktowa	!	!	!	!	!	!	!
4C/	.	4G/	-uos	4c\	-uos	4e\	-uos
!LO:TX:t=P:problem=kreska pseudotaktowa	!	!	!	!	!	!	!
!	!	!	!	!LO:TX:t=P:problem=kreska pseudotaktowa	!	!	!
!	!	!	!	!	!	!LO:TX:t=P:problem=kreska pseudotaktowa	!
4AA/	-uos	4A/	et	4c\	et	4f\	et
=121-	=121-	=121-	=121-	=121-	=121-	=121-	=121-
2BB-/	et	8G/L	mor-	(<4.B-\	mor-	(<2d\	mor-
.	.	8F/J	.	.	.	.	.
.	.	2F/	.	.	.	.	.
.	.	.	.	8A/	.	.	.
!LO:TX:t=P:problem=przed nutą skreślona kreska taktowa	!	!	!	!	!	!	!
4.C/	mor-	.	.	4.G/)	.	4.c/	.
.	.	4E/	-tu-	.	.	.	.
!LO:TX:t=P:problem=kreska pseudotaktowa	!	!	!	!	!	!	!
!	!	!	!	!LO:TX:t=P:problem=kreska pseudotaktowa	!	!	!
8C/	-tu-	.	.	8G/	-tu-	8c/)	-tu-
=122-	=122-	=122-	=122-	=122-	=122-	=122-	=122-
*	*	*	*	*	*	*custos:f	*
!	!	!	!	!LO:TX:t=P:problem=kreska pseudotaktowa	!	!	!
!	!	!	!	!	!	!LO:TX:t=P:problem=kreska pseudotaktowa	!
1FF/	-os	1F/	-os.	1A\	-os.	1c\	-os
=123||	=123-	=123-	=123-	=123-	=123-	=123-	=123-
*M3/1	*	*M3/1	*	*M3/1	*	*M3/1	*
!	!	!	!	!LO:TX:t=P:problem=kreska pseudotaktowa	!	!	!
1r	.	1r	.	1r	.	1r	.
1F\	Cu-	1A\	Cu-	1c\	Cu-	1.f\	Cu-
!	!	!LO:N:acc=#	!	!	!	!	!
!LO:TX:t=P:problem=kreska pseudotaktowa	!	!	!	!	!	!	!
1D\	-ius	1Bn\	-ius	1d\	-ius	.	.
.	.	.	.	.	.	2f\	-ius
=124-	=124-	=124-	=124-	=124-	=124-	=124-	=124-
!	!	!	!	!LO:TX:t=P::problem=kreska pseudotaktowa&colon;na nucie	!	!	!
2C/	Re-	(<0c\	re-	0.G/	Re-	0e-X\	re-
2D/	.	.	.	.	.	.	.
2E-X\	.	.	.	.	.	.	.
2C/	.	.	.	.	.	.	.
!	!	!LO:N:acc=#	!	!	!	!	!
!LO:TX:t=P:problem=kreska pseudotaktowa	!	!	!	!	!	!	!
1G\	.	1Bn\)	.	.	.	1d\	-gni
=125-	=125-	=125-	=125-	=125-	=125-	=125-	=125-
!	!	!	!	!LO:TX:t=P::problem=kreska pseudotaktowa&colon;na nucie	!	!LO:N:acc=#	!
0C/	-gni	0c\	-gni	0F/	-gni	0en\	non
*	*	*	*	*custos:F	*	*	*
!LO:TX:t=P:problem=kreska pseudotaktowa	!	!	!	!	!	!	!
1AA/	non	1c\	non	1A\	non	1f\	.
=126-	=126-	=126-	=126-	=126-	=126-	=126-	=126-
1.BB-/	e-	0.B-y\	e-	1.F/	e-	1.d\	e-
2AA/	.	.	.	4G/	.	4e\	.
.	.	.	.	4A/	.	4f\	.
!LO:TX:t=P:problem=kreska pseudotaktowa	!	!	!	!	!	!	!
1GG/	-rit	.	.	1B-\	.	1g\	.
=127-	=127-	=127-	=127-	=127-	=127-	=127-	=127-
*	*	*col	*	*	*	*	*
!	!	!	!	!LO:TX:t=P:problem=kreska pseudotaktowa	!	!	!
1AA/	fi-	1A\	-rit	1c\	-rit	1f\	-rit
*lig	*	*	*	*lig	*	*lig	*
1BB-/	.	0G/	fi-	1d\	fi-	1f\	fi-
*	*	*Xcol	*	*	*	*	*
!	!	!	!	!LO:TX:t=P:problem=kreska pseudotaktowa	!	!	!
1C/	.	.	.	1c\	.	1e\	.
*Xlig	*	*	*	*Xlig	*	*Xlig	*
=128-	=128-	=128-	=128-	=128-	=128-	=128-	=128-
*custos:D	*	*	*	*	*	*	*
0.FF/	-nis.	0.A\	-nis	0.c\	-nis.	0.f\	-nis.
=129-	=129-	=129-	=129-	=129-	=129-	=129-	=129-
*M2/2	*	*M2/2	*	*M2/2	*	*M2/2	*
*met(c|)	*	*met(c|)	*	*met(c|)	*	*met(c|)	*
4r	.	4r	.	4r	.	4r	.
2D/	Et	2A/	Et	2d\	Et	2f#X\	Et
!LO:TX:t=P:problem=kreska pseudotaktowa	!	!	!	!	!	!	!
!	!	!	!	!LO:TX:t=P:problem=kreska pseudotaktowa	!	!	!
!	!	!	!	!	!	!LO:TX:t=P:problem=kreska pseudotaktowa	!
4D/	in	4A/	in	4d\	in	4f#\	in
=130-	=130-	=130-	=130-	=130-	=130-	=130-	=130-
4.GG/	Spi-	4.B-\	Spi-	4.d\	Spi-	4.g\	Spi-
8GG/	-ri-	8B-\	-ri-	8d\	-ri-	8g\	-ri-
4GG/	-tu(m)	4B-\	-tum	4d\	-tum	4g\	-tu(m)
!	!	!	!	!LO:TX:t=P::problem=kreska pseudotaktowa&colon;między nutą a kropką	!	!	!
!	!	!	!	!	!	!LO:TX:t=P::problem=kreska pseudotaktowa&colon;na nucie	!
2FF#X/	San-	2A/	San-	4.d\	San-	2a\	San-
=131-	=131-	=131-	=131-	=131-	=131-	=131-	=131-
.	.	.	.	8d\	-ctum	.	.
4GG/	-ctu(m)	4B-\	-ctum	2d\	D(o-	4g\	-ctu(m)
4.E-X\	Do-	4B-\	Do-	.	.	4.g\	D(o-
!	!	!	!	!LO:TX:t=P:problem=kreska pseudotaktowa	!	!	!
.	.	8A/	-mi-	4c\	-mi)-	.	.
!LO:TX:t=P:problem=kreska pseudotaktowa	!	!	!	!	!	!	!
!	!	!	!	!	!	!LO:TX:t=P:problem=kreska pseudotaktowa	!
8E-\	-mi-	8G/	.	.	.	8g\	-mi)-
=132-	=132-	=132-	=132-	=132-	=132-	=132-	=132-
4D/	-nu(m)	2A/	-n(um)	4d\	-num	4f-X\	-num
2D/	et	.	.	2d\	et	2f-\	et
.	.	2r	.	.	.	.	.
!LO:TX:t=P:problem=kreska pseudotaktowa	!	!	!	!	!	!	!
!	!	!	!	!LO:TX:t=P:problem=kreska pseudotaktowa	!	!	!
!	!	!	!	!	!	!LO:TX:t=P:problem=kreska pseudotaktowa	!
4AA/	Vi-	.	.	4c\	Vi-	4e\	.
=133-	=133-	=133-	=133-	=133-	=133-	=133-	=133-
8BB-/L	-ui-	4r	.	2.B-\	-ui-	8d\L	Vi-
8C/	.	.	.	.	.	8e\	.
8D/	.	2d\	et	.	.	8fny\	-ui-
*	*	*	*	*	*	*custos:f	*
8Eny/J	.	.	.	.	.	8g\J	.
4.F\	.	.	.	.	.	4.f\	.
!	!	!	!	!LO:TX:t=P:problem=kreska pseudotaktowa	!	!	!
.	.	4c\	Vi-	4A/	-fi-	.	.
!	!	!	!	!	!	!LO:TX:t=P:problem=kreska pseudotaktowa	!
16E-X\LL	.	.	.	.	.	8f\	-[fi]
!LO:TX:t=P:problem=kreska pseudotaktowa	!	!	!	!	!	!	!
16D\JJ	.	.	.	.	.	.	.
=134-	=134-	=134-	=134-	=134-	=134-	=134-	=134-
!	!	!	!	!	!	!LO:TX:t=P:problem=kreska pseudotaktowa	!
4C/	.	4.e-X\	-ui-	2.c\	-can-	1g\	-can-
4E-X\	.	.	.	.	.	.	.
.	.	8e-\	-fi-	.	.	.	.
4G\	-fi-	2d\	-can-	.	.	.	.
!LO:TX:t=P:problem=kreska pseudotaktowa	!	!	!	!	!	!	!
!	!	!	!	!LO:TX:t=P:problem=kreska pseudotaktowa	!	!	!
4GG/	-can-	.	.	4B#X\	.	.	.
=135-	=135-	=135-	=135-	=135-	=135-	=135-	=135-
!	!	!LO:N:acc=#	!	!	!	!	!
2C/	-tem	4en\	-tem	2c\	-tem	2g\	-tem
.	.	8.c\	qui	.	.	.	.
.	.	16B-\	ex	.	.	.	.
!LO:TX:t=P:problem=kreska pseudotaktowa	!	!	!	!	!	!	!
2r	.	4A/	Pa-	4r	.	4r	.
.	.	4A/	-tre	8.f\	qui	8.a\	qui
!	!	!	!	!LO:TX:t=P:problem=kreska pseudotaktowa	!	!	!
!	!	!	!	!	!	!LO:TX:t=P:problem=kreska pseudotaktowa	!
.	.	.	.	16eny\	ex	16g\	ex
=136-	=136-	=136-	=136-	=136-	=136-	=136-	=136-
!LO:TX:b:t=3	!	!	!	!	!	!LO:TX:t=P:problem=♯above	!
0r	.	4B-\	Fi-	4d\	Pa-	4.f#X\	Pa-
.	.	8B-\	-li-	4d\	-tre	.	.
!	!	!	!	!	!	!LO:TX:t=P:problem=♯above	!
.	.	8A/	-o-	.	.	8f#X\	-tre
.	.	4.G/	-que	4e\	Fi-	4g\	Fi-
.	.	.	.	8e\	-li-	8g\	-li-
*	*	*	*	*custos:c	*	*	*
!	!	!	!	!LO:TX:t=P:problem=kreska pseudotaktowa	!	!	!
!	!	!	!	!	!	!LO:TX:t=P:problem=kreska pseudotaktowa	!
.	.	8G/	pro-	8d\	-o-	8g\	-o-
=137-	=137-	=137-	=137-	=137-	=137-	=137-	=137-
.	.	8A/L	-ce-	8c\	-que	8.fny\	-que
.	.	8F/	.	8A\	pro-	.	.
.	.	.	.	.	.	16f\	pro-
.	.	8B-/	.	8d\L	-ce-	2f\	-ce-
.	.	8A/J	.	8c\J	.	.	.
.	.	8G/L	.	8B-y\L	.	.	.
.	.	8F/J	.	8A\J	.	.	.
!	!	!	!	!LO:TX:t=P:problem=kreska pseudotaktowa	!	!	!
!	!	!	!	!	!	!LO:TX:t=P:problem=kreska pseudotaktowa	!
.	.	4G/	.	4B-\	.	4e\	.
=138-	=138-	=138-	=138-	=138-	=138-	=138-	=138-
*	*	*custos:c	*	*	*	*	*
!LO:TX:t=P:problem=kreska pseudotaktowa	!	!	!	!	!	!	!
1r	.	1F/	-dit.	1A\	-dit	1f\	-dit
=139-	=139-	=139-	=139-	=139-	=139-	=139-	=139-
*M3/2	*	*M3/2	*	*M3/2	*	*M3/2	*
1FFny/	Qui	1c\	Qui	1f\	Qui	1a\	Qui
!LO:TX:t=P:problem=kreska pseudotaktowa	!	!	!	!	!	!	!
!	!	!	!	!LO:TX:t=P:problem=kreska pseudotaktowa	!	!	!
!	!	!	!	!	!	!LO:TX:t=P:problem=kreska pseudotaktowa	!
2FF/	cu(m)	2A/	cum	2c\	cum	2f\	cum
=140-	=140-	=140-	=140-	=140-	=140-	=140-	=140-
1FF/	Pa-	1F/	Pa-	1A\	Pa-	1c\	Pa-
!LO:TX:t=P:problem=kreska pseudotaktowa	!	!	!	!	!	!	!
!	!	!	!	!LO:TX:t=P:problem=kreska pseudotaktowa	!	!	!
!	!	!	!	!	!	!LO:TX:t=P:problem=kreska pseudotaktowa	!
2FF/	-tre	2A/	-tre	2c\	-tre	2f\	-tre
=141-	=141-	=141-	=141-	=141-	=141-	=141-	=141-
2FF/	et	2c\	et	2f\	et	2a\	et
2.BB-/	Fi-	2.d\	Fi-	2.f\	Fi-	2.b-\	Fi-
*custos:F	*	*	*	*	*	*	*
!	!	!	!	!LO:TX:t=P:problem=kreska pseudotaktowa	!	!	!
!	!	!	!	!	!	!LO:TX:t=P:problem=kreska pseudotaktowa	!
4BB-/	-li-	4d\	-li-	4F/	-li-	4b-\	-li-
=142-	=142-	=142-	=142-	=142-	=142-	=142-	=142-
!LO:TX:t=P:problem=kreska pseudotaktowa	!	!	!	!	!	!	!
!	!	!	!	!LO:TX:t=P:problem=kreska pseudotaktowa	!	!	!
!	!	!	!	!	!	!LO:TX:t=P:problem=kreska pseudotaktowa	!
1.FF/	-o	1.c\	-o	1.F/	-o	1.a\	-o,
=143-	=143-	=143-	=143-	=143-	=143-	=143-	=143-
1FF/	ſi-	1c\	ſi-	1f\	ſi-	1a\	ſi-
!LO:TX:t=P:problem=kreska pseudotaktowa	!	!	!	!	!	!	!
!	!	!	!	!LO:TX:t=P:problem=kreska pseudotaktowa	!	!	!
!	!	!	!	!	!	!LO:TX:t=P:problem=kreska pseudotaktowa	!
2GG/	-mul	2B-\	-mul	2d\	-mul	2g\	-mul
=144-	=144-	=144-	=144-	=144-	=144-	=144-	=144-
1D\	a-	2.A/	a-	1d\	a-	1f\	a-
.	.	4A/	-do-	.	.	.	.
*	*	*	*	*	*	*custos:d	*
!LO:TX:t=P:problem=kreska pseudotaktowa	!	!	!	!	!	!	!
!	!	!	!	!LO:TX:t=P:problem=kreska pseudotaktowa	!	!	!
!	!	!	!	!	!	!LO:TX:t=P:problem=kreska pseudotaktowa	!
2AA/	-do-	(<1A\	-ra-	2c\	-do-	2e\	-do-
=145-	=145-	=145-	=145-	=145-	=145-	=145-	=145-
!	!	!	!	!	!	!LO:TX:t=P:problem=kreska pseudotaktowa	!
2.BB-/	-ra-	.	.	(<1B-\	-ra-	1.d\	-ra-
.	.	2G/)	.	.	.	.	.
4C/	.	.	.	.	.	.	.
!LO:TX:t=P:problem=kreska pseudotaktowa	!	!	!	!	!	!	!
!	!	!	!	!LO:TX:t=P:problem=kreska pseudotaktowa	!	!	!
2D/	.	2F#X/	.	2A/)	.	.	.
=146-	=146-	=146-	=146-	=146-	=146-	=146-	=146-
1GG/	-tur	1G/,<	-tur	1B-\	-tur	1d\	-tur
!LO:TX:t=P:problem=kreska pseudotaktowa	!	!	!	!	!	!	!
!	!	!	!	!LO:TX:t=P:problem=kreska pseudotaktowa	!	!	!
!	!	!	!	!	!	!LO:TX:t=P:problem=kreska pseudotaktowa	!
2D/	et	2A/	et	2d\	et	2f\	et
=147-	=147-	=147-	=147-	=147-	=147-	=147-	=147-
2.AA/	con-	2.c\	con-	2.f\	con-	2.a\	con-
4AA/	-glo-	4c\	-glo-	4f\	-glo-	4a\	-glo-
!	!	!	!	!	!	!LO:TX:t=P:problem=przed nutą skreślona kreska taktowa	!
!LO:TX:t=P:problem=kreska pseudotaktowa	!	!	!	!	!	!	!
!	!	!	!	!LO:TX:t=P:problem=kreska pseudotaktowa	!	!	!
2BB-/	-ri-	2B-\	-ri-	2d\	-ri-	4.g\	-ri-
!	!	!	!	!	!	!LO:TX:t=P:problem=kreska pseudotaktowa	!
.	.	.	.	.	.	8g\	-fi-
=148-	=148-	=148-	=148-	=148-	=148-	=148-	=148-
2D/	-fi-	2A/	-fi-	2d\	-fi-	1f\	-ca-
2BB-/	-ca-	1G/	-ca-	2d\	-ca-	.	.
!LO:TX:t=P:problem=kreska pseudotaktowa	!	!	!	!	!	!	!
!	!	!	!	!LO:TX:t=P:problem=kreska pseudotaktowa	!	!	!
!	!	!	!	!	!	!LO:TX:t=P:problem=kreska pseudotaktowa	!
2C/	.	.	.	2c\	.	2e\	.
=149-	=149-	=149-	=149-	=149-	=149-	=149-	=149-
*	*	*	*	*custos:c	*	*	*
!	!	!	!	!LO:TX:t=P:problem=na marginesie "kustosz słowny"&colon; Qui lo.	!	!	!
1.FF/	-tur	1.A\	-tur	1.c\	-tur.	1.f\	-tur.
=150-	=150-	=150-	=150-	=150-	=150-	=150-	=150-
*M2/2	*	*M2/2	*	*M2/2	*	*M2/2	*
*met(c|)	*	*met(c|)	*	*met(c|)	*	*met(c|)	*
4r	.	1r	.	4c\	Qui	4a\	Qui
4F\	Qui	.	.	4A/	lo-	4f\	.
4D/	lo-	.	.	4.F/	-cu-	8f\L	lo-
.	.	.	.	.	.	8e\J	.
!LO:TX:t=P::problem=kreska pseudotaktowa&colon;między nutą a kropką	!	!	!	!	!	!	!
!	!	!	!	!	!	!LO:TX:t=P::problem=kreska pseudotaktowa&colon;między nutą a kropką	!
4.BB-/	-cu-	.	.	.	.	4.d\	-cu-
!	!	!	!	!LO:TX:t=P:problem=kreska pseudotaktowa	!	!	!
.	.	.	.	8F/	-tus	.	.
=151-	=151-	=151-	=151-	=151-	=151-	=151-	=151-
.	.	1r	.	2G/	est	.	.
8BB-/	-t(us)	.	.	.	.	8d\	-t(us)
2C/	est	.	.	.	.	2e\	est
.	.	.	.	8.A/	per	.	.
.	.	.	.	16A/	Pro-	.	.
!	!	!	!	!LO:TX:t=P::problem=kreska pseudotaktowa&colon;na nucie	!	!	!
8.D\	.	.	.	2B-\	-phe-	8d\	per
!	!	!	!	!	!	!LO:TX:t=P:problem=kreska pseudotaktowa	!
.	.	.	.	.	.	8d\	Pro-
!LO:TX:t=P:problem=kreska pseudotaktowa	!	!	!	!	!	!	!
16D\	per	.	.	.	.	.	.
=152-	=152-	=152-	=152-	=152-	=152-	=152-	=152-
!	!	!	!	!	!	!LO:TX:t=P:problem=kreska pseudotaktowa	!
8Eny\L	Pro-	1r	.	.	.	1c\	-phe-
8C\J	.	.	.	.	.	.	.
2F\	-phe-	.	.	4A/	.	.	.
!	!	!	!	!LO:TX:t=P:problem=kreska pseudotaktowa	!	!	!
.	.	.	.	2G/	.	.	.
*custos:F	*	*	*	*	*	*	*
!LO:TX:t=P::problem=na marginesie "kustosz słowny"&colon; tas	!	!	!	!	!	!	!
!LO:TX:t=P:problem=kreska pseudotaktowa	!	!	!	!	!	!	!
4E\	.	.	.	.	.	.	.
=153-	=153-	=153-	=153-	=153-	=153-	=153-	=153-
4F,<\	-tas.	4r	.	4A/	-tas	4c/	-tas
*	*	*custos:c	*	*	*	*	*
4F\	Et	4c\	Et	4A/	Et	4f\	Et
4F\	V-	4.c\	V-	4.A/	V-	4f\	V-
!LO:TX:t=P:problem=kreska pseudotaktowa	!	!	!	!	!	!	!
!	!	!	!	!	!	!LO:TX:t=P:problem=kreska pseudotaktowa	!
4F\	-nam	.	.	.	.	4f\	-na(m)
!	!	!	!	!LO:TX:t=P:problem=kreska pseudotaktowa	!	!	!
.	.	8c\	-nam	8A/	-nam	.	.
=154-	=154-	=154-	=154-	=154-	=154-	=154-	=154-
8BB-/L	.	2d\	Sanc-	2B-\	Sanc-	2f\	Sanc-
8C/	.	.	.	.	.	.	.
8D/	San-	.	.	.	.	.	.
8E/J	.	.	.	.	.	.	.
4F\	.	4c\	-ta(m)	4A/	-ta(m)	4f\	-ta(m)
!	!	!	!	!LO:TX:t=P:problem=kreska pseudotaktowa	!	!	!
!	!	!	!	!	!	!LO:TX:t=P:problem=kreska pseudotaktowa	!
8E\	.	4c\	Ca-	4G/	Ca-	4g\	.
!LO:TX:t=P:problem=kreska pseudotaktowa	!	!	!	!	!	!	!
8E\	-ctam	.	.	.	.	.	.
=155-	=155-	=155-	=155-	=155-	=155-	=155-	=155-
2F\	Ca-	8A\L	-tho-	4c\	-tho-	2a\	Ca-
.	.	8B-\J	.	.	.	.	.
.	.	2c\	.	8f\L	.	.	.
.	.	.	.	8e\J	.	.	.
4.G\	-tho-	.	.	8d\L	.	4.g\	-tho-
.	.	.	.	8c\J	.	.	.
!	!	!LO:N:acc=#	!	!	!	!	!
.	.	4Bn\	-li-	8.d\	.	.	.
!LO:TX:t=P:problem=kreska pseudotaktowa	!	!	!	!	!	!	!
!	!	!	!	!	!	!LO:TX:t=P:problem=kreska pseudotaktowa	!
8GG/	-li-	.	.	.	.	8g\	-li-
!	!	!	!	!LO:TX:t=P:problem=kreska pseudotaktowa	!	!	!
.	.	.	.	16d\	-li-	.	.
=156-	=156-	=156-	=156-	=156-	=156-	=156-	=156-
*	*	*	*	*	*	*custos:f	*
!	!	!	!	!LO:N:acc=#	!	!	!
!	!	!	!	!LO:TX:t=P:problem=kreska pseudotaktowa	!	!	!
!	!	!	!	!LO:TX:t=P:problem=♯above	!	!	!
1C/,<	-cam	1c\,<	-cam	1en\	-cam	1g\	-cam
=157-	=157-	=157-	=157-	=157-	=157-	=157-	=157-
2F\	Et	2A/	Et	2c\	Et	2f\	et
4F\	A-	4A/	A-	4c\	A-	4.f\	A-
!LO:TX:t=P:problem=kreska pseudotaktowa	!	!	!	!	!	!	!
!	!	!	!	!LO:TX:t=P:problem=kreska pseudotaktowa	!	!	!
4C/	-po-	4B-y\	-po-	4d\	-po-	.	.
!	!	!	!	!	!	!LO:TX:t=P:problem=kreska pseudotaktowa	!
.	.	.	.	.	.	8f\	-po-
=158-	=158-	=158-	=158-	=158-	=158-	=158-	=158-
4.F\	-ſto-	4.A/	-ſto-	4.c\	-ſto-	4.f\	-ſto-
8F\	-li-	8A/	-li-	8c\	-li-	8f\	-li-
4G\	-cam	4.G/	-cam	4B-\	-cam	4d\	-cam
*	*	*	*	*custos:A	*	*	*
!LO:TX:t=P:problem=kreska pseudotaktowa	!	!	!	!	!	!	!
!	!	!	!	!LO:TX:t=P:problem=kreska pseudotaktowa	!	!	!
!	!	!	!	!	!	!LO:TX:t=P:problem=kreska pseudotaktowa	!
4E-X\	Ec-	.	.	4c\	Ec-	4e-X\	Ec-
.	.	8G/	Ec-	.	.	.	.
=159-	=159-	=159-	=159-	=159-	=159-	=159-	=159-
4F\	-cle-	2.Fny/	-cle-	2A/	-cle-	2.c/	-cle-
8AA/L	.	.	.	.	.	.	.
8BB-/J	.	.	.	.	.	.	.
4.C/	.	.	.	4.G/	.	.	.
!	!	!	!	!	!	!LO:TX:t=P:problem=kreska pseudotaktowa	!
.	.	4E/	-ſi-	.	.	4c/	-ſi-
!LO:TX:t=P:problem=kreska pseudotaktowa	!	!	!	!	!	!	!
!	!	!	!	!LO:TX:t=P:problem=kreska pseudotaktowa	!	!	!
8C/	-ſi-	.	.	8G/	-ſi-	.	.
=160-	=160-	=160-	=160-	=160-	=160-	=160-	=160-
2FF/	-am	2F/	-am.	4A/	-am	4c/	-am
.	.	.	.	4A/	Con-	4c/	Con-
!LO:TX:t=P:problem=kreska pseudotaktowa	!	!	!	!	!	!	!
2r	.	4r	.	4.A/	-fi-	4.f\	-fi-
.	.	4F/	Con-	.	.	.	.
!	!	!	!	!LO:TX:t=P:problem=kreska pseudotaktowa	!	!	!
!	!	!	!	!	!	!LO:TX:t=P:problem=kreska pseudotaktowa	!
.	.	.	.	8A/	-te-	8f\	-te-
=161-	=161-	=161-	=161-	=161-	=161-	=161-	=161-
!	!	!	!	!LO:TX:t=P:problem=kreska pseudotaktowa	!	!	!
2C/	Con-	4.c\	-fi-	1G/	-or	2e-X\	-or
.	.	8c\	-te-	.	.	.	.
!	!	!	!	!	!	!LO:TX:t=P:problem=kreska pseudotaktowa	!
4.G\	-fi-	2B-\	-or	.	.	2d\	V-
!LO:TX:t=P:problem=kreska pseudotaktowa	!	!	!	!	!	!	!
8G\	-te-	.	.	.	.	.	.
=162-	=162-	=162-	=162-	=162-	=162-	=162-	=162-
*custos:E-	*	*	*	*	*	*	*
2F\	-or	2A/	V-	2.d\	V-	2f\	-num
!	!	!	!	!	!	!LO:TX:t=P:problem=kreska pseudotaktowa	!
4E-X\	V-	4G/	-num	.	.	2g\	Bap-
8E-\	-num	4e-X\	Ba-	8c\	-num	.	.
!LO:TX:t=P:problem=kreska pseudotaktowa	!	!	!	!	!	!	!
!	!	!	!	!LO:TX:t=P:problem=kreska pseudotaktowa	!	!	!
8F\	Bap-	.	.	8c\	Ba-	.	.
=163-	=163-	=163-	=163-	=163-	=163-	=163-	=163-
!	!	!	!	!LO:N:acc=#	!	!	!
!	!	!	!	!	!	!LO:TX:t=P:problem=kreska pseudotaktowa	!
1G\	-tiſ-	4d\	.	(4Bn\	-pti-	1g\	-tiſ-
.	.	2c\	-pti-	4e-X\)	.	.	.
!	!	!	!	!LO:TX:t=P:problem=kreska pseudotaktowa	!	!	!
.	.	.	.	2d\	.	.	.
!	!	!LO:N:acc=#	!	!	!	!	!
.	.	4Bn\	.	.	.	.	.
=164-	=164-	=164-	=164-	=164-	=164-	=164-	=164-
*	*	*custos:c	*	*	*	*	*
!	!	!	!	!LO:N:acc=#	!	!	!
!LO:TX:t=P:problem=kreska pseudotaktowa	!	!	!	!	!	!	!
!	!	!	!	!LO:TX:t=P:problem=kreska pseudotaktowa	!	!	!
1C/,<	-ma	1c\	-sma	1en\	-ſma	1g\	-ma
=165-	=165-	=165-	=165-	=165-	=165-	=165-	=165-
!	!	!	!	!LO:TX:t=P:problem=kreska pseudotaktowa	!	!	!
4.C/	in	4.c\	in	1r	.	1r	.
8C/	re-	8c\	re-	.	.	.	.
4D/	-miſ-	4B-y\	-miſ-	.	.	.	.
!LO:TX:t=P:problem=kreska pseudotaktowa	!	!	!	!	!	!	!
4Eny\	-si-	4G/	-si-	.	.	.	.
=166-	=166-	=166-	=166-	=166-	=166-	=166-	=166-
2.F\	-o-	2A/	-o-	4.A\	in	4.c/	in
.	.	.	.	8A\	re-	8c/	re-
.	.	2G/	-nem	4B-y\	-miſ-	4d\	-miſ-
!LO:TX:t=P:problem=kreska pseudotaktowa	!	!	!	!	!	!	!
!	!	!	!	!LO:TX:t=P:problem=kreska pseudotaktowa	!	!	!
!	!	!	!	!	!	!LO:TX:t=P:problem=kreska pseudotaktowa	!
4E\	-nem	.	.	4c\	-si-	4eny\	-si-
=167-	=167-	=167-	=167-	=167-	=167-	=167-	=167-
!	!	!	!	!	!	!LO:TX:t=P:problem=pomiędzy nutami 1 i 2 jakaś plama	!
4.D/	pec-	2A/	pec-	2.d\	-o-	2f\	-o-
8C/	-ca-	.	.	.	.	.	.
!LO:N:acc=#	!	!	!	!	!	!	!
4BBn/	-to-	2G/	-ca-	.	.	4e-X\	-nem
!LO:TX:t=P:problem=kreska pseudotaktowa	!	!	!	!	!	!	!
!	!	!	!	!LO:TX:t=P:problem=kreska pseudotaktowa	!	!	!
4C/	.	.	.	4c\	-nem	8.d\	pec-
!	!	!	!	!	!	!LO:TX:t=P:problem=kreska pseudotaktowa	!
.	.	.	.	.	.	16d\	-ca-
=168-	=168-	=168-	=168-	=168-	=168-	=168-	=168-
!	!	!	!	!LO:N:acc=#	!	!	!
1GG/	.	1G/	-to-	4Bn\	pec-	2c/	-to-
.	.	.	.	4e-X\	-ca-	.	.
*	*	*	*	*	*	*custos:c	*
!	!	!	!	!	!	!LO:TX:t=P:♯below:problem	!
!	!	!	!	!	!	!LO:N:acc=#	!
!	!	!	!	!LO:TX:t=P:problem=kreska pseudotaktowa	!	!	!
.	.	.	.	2d\	-to-	4Bn/	.
!	!	!	!	!	!	!LO:TX:t=P:problem=kreska pseudotaktowa	!
.	.	.	.	.	.	4c/	-rum
=169-	=169-	=169-	=169-	=169-	=169-	=169-	=169-
!	!	!	!	!LO:N:acc=#	!	!	!
4C,</	-rum.	4G/	-rum.	4en\	-rum	2eny\	et
2C/	Et	2G/	Et	2c\	Et	.	.
.	.	.	.	.	.	4f\	.
!LO:TX:t=P:problem=kreska pseudotaktowa	!	!	!	!	!	!	!
!	!	!	!	!LO:TX:t=P:problem=kreska pseudotaktowa	!	!	!
4AA/	ex-	4A/	ex-	4c\	ex-	8d\L	ex-
!	!	!	!	!	!	!LO:TX:t=P:problem=kreska pseudotaktowa	!
.	.	.	.	.	.	8e\J	.
=170-	=170-	=170-	=170-	=170-	=170-	=170-	=170-
4.BB-/	-pe-	(2F/	-pe-	8B-y\L	-pe-	2f\	-pe-
.	.	.	.	8c\	.	.	.
.	.	.	.	8d\	.	.	.
8AA/	.	.	.	8c\J	.	.	.
!LO:TX:t=P:problem=kreska pseudotaktowa	!	!	!	!	!	!	!
!	!	!	!	!LO:TX:t=P:problem=kreska pseudotaktowa	!	!	!
2GG/	.	2G/)	.	2B-\	.	4e\	.
!	!	!	!	!	!	!LO:TX:t=P:problem=kreska pseudotaktowa	!
.	.	.	.	.	.	4f\	-cto
=171-	=171-	=171-	=171-	=171-	=171-	=171-	=171-
*	*	*	*	*custos:A	*	*	*
2FF/	-cto	4C/	-cto	2A/	-cto	4.a\	re-
.	.	4.c\	re-	.	.	.	.
.	.	.	.	.	.	8g\	-ſur-
4.F\	re-	.	.	4.A/	re-	4.f\	-re-
.	.	8B-\	-ſur-	.	.	.	.
.	.	4.A/	-rec-	.	.	.	.
!LO:TX:t=P:problem=kreska pseudotaktowa	!	!	!	!	!	!	!
!	!	!	!	!LO:TX:t=P:problem=kreska pseudotaktowa	!	!	!
!	!	!	!	!	!	!LO:TX:t=P:problem=kreska pseudotaktowa	!
8E\	-ſur-	.	.	8G/	-ſur-	8e\	-cti-
=172-	=172-	=172-	=172-	=172-	=172-	=172-	=172-
4.D/	-rec-	.	.	4.F/	-rec-	4.d\	-o-
.	.	8G/	-ti-	.	.	.	.
.	.	4.F/	-o-	.	.	.	.
8C/	-ti-	.	.	8E/	-ti-	8e\	-ne(m)
!	!	!	!	!	!	!LO:TX:t=P::problem=kreska pseudotaktowa&colon;między nutą a kropką	!
4.BB-/	-o-	.	.	4D/	-o-	2.f\	mor-
.	.	8E/	-nem	.	.	.	.
!	!	!	!	!LO:TX:t=P:problem=kreska pseudotaktowa	!	!	!
.	.	4.D/	mor-	4D/	-nem	.	.
!LO:TX:t=P:problem=kreska pseudotaktowa	!	!	!	!	!	!	!
8BB-/	-ne(m)	.	.	.	.	.	.
=173-	=173-	=173-	=173-	=173-	=173-	=173-	=173-
4BB-/	mor-	.	.	4d\	mor-	.	.
.	.	8E/	-tu-	.	.	.	.
4AA/	-tu-	(2F/	-o-	4c\	-tu-	4f\	-tu-
*custos:FF	*	*	*	*	*	*	*
!	!	!	!	!LO:TX:t=P:problem=kreska pseudotaktowa	!	!	!
2GG/	-o-	.	.	2B-\	-o-	2g\	-o-
.	.	4E/)	.	.	.	.	.
=174-	=174-	=174-	=174-	=174-	=174-	=174-	=174-
*M3/2	*	*M3/2	*	*M3/2	*	*M3/2	*
1FF/,<	-rum	1F/,<	-rum.	1A\	-rum	1c\,<	-rum
!	!	!	!	!LO:TX:t=P:problem=kreska pseudotaktowa	!	!	!
2FF/	Et	2F/	Et	2A/	Et	2c/	Et
=175-	=175-	=175-	=175-	=175-	=175-	=175-	=175-
2BB-/	Vi-	2F/	Vi-	2B-\	Vi-	2d\	Vi-
2GG/	-tam	2G/	-tam	2B-\	-tam	2d\	-tam
*	*	*custos:A	*	*	*	*	*
!	!	!	!	!LO:TX:t=P:problem=kreska pseudotaktowa	!	!	!
2C/	Ven-	2G/	Ven-	2c\	et	2e\	Ven-
=176-	=176-	=176-	=176-	=176-	=176-	=176-	=176-
2.F\	-tu-	2.A/	-ti-	2.c\	Vi-	2.f\	-tu-
4F\	-ri	4A/	-ri	4c\	-tam	4f\	-ri
!	!	!	!	!LO:TX:t=P:problem=kreska pseudotaktowa	!	!	!
2E\	ſ(ae)-	2G/	Ven-	2c\	Ven-	2g\	Ven-
=177-	=177-	=177-	=177-	=177-	=177-	=177-	=177-
4F\	.	4A/	-tu-	1c\	-tu-	1f\	-tu-
4E\	.	4G/	.	.	.	.	.
4F\	.	4A/	.	.	.	.	.
4G\	.	4B-\	.	.	.	.	.
!LO:TX:t=P:problem=kreska pseudotaktowa	!	!	!	!	!	!	!
!	!	!	!	!LO:TX:t=P:problem=kreska pseudotaktowa	!	!	!
2A\	.	4c\	.	2c\	-ri	2e\	-ri
.	.	4d\	.	.	.	.	.
=178-	=178-	=178-	=178-	=178-	=178-	=178-	=178-
2E\	.	4eny\	.	1c\	ſ(ae)-	1g\	ſ(ae)-
.	.	4f\	-ri	.	.	.	.
2.G\	.	2.d\	ſ(ae)-	.	.	.	.
!	!	!	!	!LO:N:acc=#	!	!	!
.	.	.	.	2Bn\	-cu-	2g\	-cu-
4G\	-cu-	4d\	-cu-	.	.	.	.
=179-	=179-	=179-	=179-	=179-	=179-	=179-	=179-
*	*	*	*	*	*	*custos:c	*
1.C/	-li.	1.e\	-li.	1.c\	-li	1.g\	-li
=180-	=180-	=180-	=180-	=180-	=180-	=180-	=180-
*M2/2	*	*M2/2	*	*M2/2	*	*M2/2	*
*met(c|)	*	*met(c|)	*	*met(c|)	*	*met(c|)	*
0r	.	1r	.	4F/	A-	0r	.
.	.	.	.	4A/	.	.	.
.	.	.	.	4F/	.	.	.
!	!	!	!	!LO:TX:t=P:problem=kreska pseudotaktowa	!	!	!
.	.	.	.	4A/	.	.	.
=181-	=181-	=181-	=181-	=181-	=181-	=181-	=181-
.	.	4C/	A-	2c\	.	.	.
.	.	4E/	.	.	.	.	.
.	.	4C/	.	4A\	.	.	.
!	!	!	!	!LO:TX:t=P:problem=kreska pseudotaktowa	!	!	!
.	.	4E/	.	4c\	.	.	.
=182-	=182-	=182-	=182-	=182-	=182-	=182-	=182-
*	*	*	*	*custos:A	*	*	*
2r	.	8G/L	.	2B-y\	.	1r	.
.	.	8F/	.	.	.	.	.
.	.	8D/	.	.	.	.	.
.	.	8E/J	.	.	.	.	.
4FF/	A-	4.F/	.	4.A/	.	.	.
!LO:TX:t=P:problem=kreska pseudotaktowa	!	!	!	!	!	!	!
4AA/	.	.	.	.	.	.	.
!	!	!	!	!LO:TX:t=P:problem=kreska pseudotaktowa	!	!	!
.	.	8G/	.	8B-\	.	.	.
=183-	=183-	=183-	=183-	=183-	=183-	=183-	=183-
4FF/	.	4.A/	.	4.c\	.	2r	.
4AA/	.	.	.	.	.	.	.
.	.	16G/LL	.	16B-\LL	.	.	.
.	.	16F/JJ	.	16A\JJ	.	.	.
!LO:TX:t=P:problem=kreska pseudotaktowa	!	!	!	!	!	!	!
!	!	!	!	!LO:TX:t=P:problem=kreska pseudotaktowa	!	!	!
2C/	.	2E/	.	2G/	.	4c/	A-
!	!	!	!	!	!	!LO:TX:t=P:problem=kreska pseudotaktowa	!
.	.	.	.	.	.	4e\	.
=184-	=184-	=184-	=184-	=184-	=184-	=184-	=184-
4AA/	.	4A/	.	2c\	.	4c/	.
4C/	.	8G/L	.	.	.	4e\	.
.	.	8A/J	.	.	.	.	.
!LO:TX:t=P:problem=kreska pseudotaktowa	!	!	!	!	!	!	!
!	!	!	!	!LO:TX:t=P:problem=kreska pseudotaktowa	!	!	!
!	!	!	!	!	!	!LO:TX:t=P:problem=kreska pseudotaktowa	!
2GG/	.	2B-\	.	2d\	.	2g\	.
=185-	=185-	=185-	=185-	=185-	=185-	=185-	=185-
4AA/	.	4A/	.	2.c\	.	4e\	.
4E\	.	4G/	.	.	.	4g\	.
4F\	.	(4A/	.	.	.	4f\	.
*custos:C	*	*	*	*	*	*	*
!	!	!	!	!LO:N:acc=#	!	!	!
!LO:TX:t=P:problem=kreska pseudotaktowa	!	!	!	!	!	!	!
!	!	!	!	!LO:TX:t=P:problem=♯above	!	!	!
!	!	!	!	!LO:TX:t=P:problem=kreska pseudotaktowa	!	!	!
4G\	.	4G/)	.	4Bn,<\	-men	8d\L	.
.	.	.	.	.	.	16g\L	.
!	!	!	!	!	!	!LO:TX:t=P:problem=kreska pseudotaktowa	!
.	.	.	.	.	.	16f\JJ	.
=186-	=186-	=186-	=186-	=186-	=186-	=186-	=186-
*	*	*custos:f	*	*	*	*	*
!	!	!LO:TX:t=P::problem=na marginesie "kustosz słowny"&colon; A.	!	!	!	!	!
4.C/	.	2G,</	-men	2c\	A-	4.e\	.
16D\LL	.	.	.	.	.	8d\	.
16E\JJ	.	.	.	.	.	.	.
!	!	!	!	!LO:TX:t=P:problem=kreska pseudotaktowa	!	!	!
!	!	!	!	!	!	!LO:TX:t=P:problem=kreska pseudotaktowa	!
4.F\	.	4r	.	2A/	.	2c/	.
.	.	4.f\	A-	.	.	.	.
!LO:TX:t=P:problem=kreska pseudotaktowa	!	!	!	!	!	!	!
8E\	.	.	.	.	.	.	.
=187-	=187-	=187-	=187-	=187-	=187-	=187-	=187-
8D/L	.	.	.	2F/	.	8d\L	.
8C/	.	8e\L	.	.	.	8e\J	.
8BB-/	.	8d\	.	.	.	2f\	.
8AA/J	.	8c\J	.	.	.	.	.
!	!	!	!	!LO:TX:t=P:problem=kreska pseudotaktowa	!	!	!
4GG/	.	4B-\	.	2G/	.	.	.
!LO:TX:t=P:problem=kreska pseudotaktowa	!	!	!	!	!	!	!
!	!	!	!	!	!	!LO:TX:t=P:problem=kreska pseudotaktowa	!
4C/	.	4c\	.	.	.	4e\	.
=188-	=188-	=188-	=188-	=188-	=188-	=188-	=188-
8FF/L	.	[2c\	-men	2A/	.	8f\L	.
8GG/	.	.	.	.	.	8e\	.
8AA/	.	.	.	.	.	8c\	.
8BB-/J	.	.	.	.	.	8d\J	.
!	!	!	!	!LO:TX:t=P:problem=kreska pseudotaktowa	!	!	!
!	!	!	!	!	!	!LO:TX:t=P:problem=kreska pseudotaktowa	!
8C/L	.	8c\L]	.	2G/	.	2e\	.
8D/	.	16B-\L	.	.	.	.	.
.	.	16A\JJ	.	.	.	.	.
8E/	.	4.G/	A-	.	.	.	.
!LO:TX:t=P:problem=kreska pseudotaktowa	!	!	!	!	!	!	!
8F/J	.	.	.	.	.	.	.
=189-	=189-	=189-	=189-	=189-	=189-	=189-	=189-
4G\	.	.	.	2B-y/	.	4d\	.
.	.	8A/	.	.	.	.	.
4GG/	.	4B-\	.	.	.	2g\	.
!	!	!	!	!LO:TX:t=P:problem=kreska pseudotaktowa	!	!	!
4.AA/	.	2.c\	.	2A/	.	.	.
!	!	!	!	!	!	!LO:TX:t=P:problem=kreska pseudotaktowa	!
.	.	.	.	.	.	4f\	.
!LO:TX:t=P:problem=kreska pseudotaktowa	!	!	!	!	!	!	!
8BB-/	.	.	.	.	.	.	.
=190-	=190-	=190-	=190-	=190-	=190-	=190-	=190-
!	!	!	!	!LO:TX:t=P:problem=kreska pseudotaktowa	!	!	!
4C/	.	.	.	1G/	.	8e\L	.
.	.	.	.	.	.	8c\J	.
4BB-/	.	4d\	.	.	.	2f\	.
!LO:TX:t=P:problem=kreska pseudotaktowa	!	!	!	!	!	!	!
2C/	.	2c\	-men	.	.	.	.
!	!	!	!	!	!	!LO:TX:t=P:problem=kreska pseudotaktowa	!
.	.	.	.	.	.	4e\	.
=191-	=191-	=191-	=191-	=191-	=191-	=191-	=191-
4FF/	-men	2c\	A-	2A/	-men	[1f\l	-men.
8F\L	A-	.	.	.	.	.	.
8E\J	.	.	.	.	.	.	.
4D/	.	4d\	.	4r	.	.	.
!LO:TX:t=P:problem=kreska pseudotaktowa	!	!	!	!	!	!	!
4AA/	.	4c\	.	8f\L	A-	.	.
!	!	!	!	!LO:TX:t=P:problem=kreska pseudotaktowa	!	!	!
!	!	!	!	!LO:TX:t=P:♭above:problem	!	!	!
.	.	.	.	8e-X\J	.	.	.
=192-	=192-	=192-	=192-	=192-	=192-	=192-	=192-
4BB-/	.	4B-\	.	4d\	.	1f\_	.
4FF/	.	8f\L	.	4A/	.	.	.
.	.	8e-X\J	.	.	.	.	.
4BB-/	.	4d\	.	4B-\	.	.	.
!LO:TX:t=P:problem=kreska pseudotaktowa	!	!	!	!	!	!	!
!	!	!	!	!LO:TX:t=P:problem=kreska pseudotaktowa	!	!	!
4AA/	.	2c\	.	4c\	.	.	.
=193-	=193-	=193-	=193-	=193-	=193-	=193-	=193-
!	!	!	!	!	!	!LO:TX:b:t=AMDG.\nMM Pr(ae)ph(ositus?) ſcripsit\n1(?) 8(?) 1664.	!
!LO:TX:t=P:problem=kreska pseudotaktowa	!	!	!	!	!	!	!
!	!	!	!	!LO:TX:t=P:problem=kreska pseudotaktowa	!	!	!
1BB-/	-men	.	.	1d\	.	1f\_	.
.	.	8B-\L	.	.	.	.	.
.	.	8A\J	.	.	.	.	.
.	.	2B-\	-men.	.	.	.	.
=194-	=194-	=194-	=194-	=194-	=194-	=194-	=194-
!	!	!LO:TX:t=P::problem=skrót rozszyfrowany przez ks. Surzyńskiego&colon;\nMathias Miśkiewicz Praepositus Rorantistarum \nnotavit&colon; X. Surzyński\n21/5 87.	!	!	!	!	!
!LO:TX:b:t=AMD\nG. BVM.\nMMRC.\nſcripsit.	!	!LO:TX:b:t=M.M.P.R. Scripsit\nA.M.D.G.B.M.V.H&colon;	!	!LO:TX:b:t=A.M.D.G\nper\nM.A.M.\nP. R. Scripsit\nAD 1664	!	!	!
!LO:N:vis=0	!	!LO:N:vis=0	!	!	!	!	!
!LO:TX:t=P:problem=kreska pseudotaktowa	!	!	!	!	!	!	!
!	!	!	!	!LO:TX:t=P:problem=kreska pseudotaktowa	!	!	!
!	!	!	!	!LO:N:vis=0	!	!	!
1FF/	.	1A\	.	1c\;	-men.	1f\]	.
==	==	==	==	==	==	==	==
*-	*-	*-	*-	*-	*-	*-	*-
!!!RDF**kern: l = terminal long
!!!RDF**kern: > = above
!!!RDF**kern: < = below
!!!system-decoration: [(s1,s2,s3,s4)]
!!!EED: Andrzej Borzym
!!!EEV: 2021-03-15
!!!ENC: Mateusz Solarz
!!!END: 2021-02-25
